!!!!SEGMENT: pl-cz--iii-747--001-001_zebrowski-marcin-jozef--missa-pastoritia-kyrie.krn
!!!cenid: 17xx:2361
!!!COM: Żebrowski, Marcin Józef
!!!COM-rismID: pe30020322
!!!CDT: 1702-1770/06/29
!!!CNT: Polish
!!!OPR: Missa Pastoritia
!!!OTL: Kyrie
!!!OMV: 001
!!!PDT:
!!!AGN:
!!!SMS-siglum: PL-CZ
!!!SMS-shelfmark: III-747
!!!SMS-shelfwork: 001-001 M
!!!SMS-variant:
!!!SMS-altvar:
!!!NIFC-rismSourceID: 300033498
!!!NIFC-rismChildID: 300033498
!!!NIFC-islandoraID: pl-cz:25310
!!!URL-pdf-islandora: https://repozytorium.nifc.pl/islandora/object/pl-cz%3A25310/datastream/PDF/view
!!!URL-scan: https://polish.musicsources.pl/pl/lokalizacje/galeria/rekopisy/1477 @EN{Scan on Polish Music Sources Website} @PL{Skany w portalu Dziedzictwo Muzyki Polskiej w otwartym dostępie}
!!!ONB-nifc: UWAGA: części Mszy: 1. Kyrie, 2. Et in terra, 3. Patrem, 4. Sanctus, 5. Benedictus
!!!AIN: 1 alto 1 bass 2 clrno 2 organ 1 soprn 1 tenor 1 timpa 2 violn
!!!key: D
**kern	**dynam	**kern	**fba	**dynam	**kern	**dynam	**kern	**dynam	**kern	**text	**kern	**text	**kern	**text	**kern	**text	**kern	**kern	**kern
*	*	*	*	*	*group3	*	*group3	*	*group2	*	*group2	*	*group2	*	*group2	*	*	*group1	*group1
*part11	*part11	*part10	*part10	*part10	*part9	*part9	*part8	*part8	*part7	*part7	*part6	*part6	*part5	*part5	*part4	*part4	*part3	*part2	*part1
*staff11	*	*staff10	*	*	*staff9	*	*staff8	*	*staff7	*staff7	*staff6	*staff6	*staff5	*staff5	*staff4	*staff4	*staff3	*staff2	*staff1
*I"Basſo pro Organo.	*	*I"Baſso pro Organo.	*	*	*I"Violino Secondo.	*	*I"Violino Primo.	*	*I"Baſso.	*	*I"Tenore.	*	*I"Alto.	*	*I"Canto.	*	*I"Tympana.	*I"Clarino 2do.	*I"Clarino Primo.
*I'b rip	*	*I'org	*	*	*I'vl 2	*	*I'vl 1	*	*I'B	*	*I'T	*	*I'A	*	*I'S	*	*I'timp	*I'clno 2	*I'clno 1
*Iorgan	*	*Iorgan	*	*	*Ivioln	*	*Ivioln	*	*Ibass	*	*Itenor	*	*Ialto	*	*Isoprn	*	*Itimpa	*Iclrno	*Iclrno
*ICklav	*	*ICklav	*	*	*ICstr	*	*ICstr	*	*ICvox	*	*ICvox	*	*ICvox	*	*ICvox	*	*ICidio	*ICbras	*ICbras
*IGcont	*	*IGcont	*	*	*	*	*	*	*	*	*	*	*	*	*	*	*	*	*
*clefF4	*	*clefF4	*	*	*clefG2	*	*clefG2	*	*clefF4	*	*clefC4	*	*clefC3	*	*clefC1	*	*clefF4	*clefG2	*clefG2
*	*	*	*	*	*	*	*	*	*	*	*	*	*	*	*	*	*ITrd-1c-2	*ITrd-1c-2	*ITrd-1c-2
*k[f#c#]	*	*k[f#c#]	*	*	*k[f#c#]	*	*k[f#c#]	*	*k[f#c#]	*	*k[c#f#]	*	*k[f#c#]	*	*k[c#f#]	*	*k[f#c#]	*k[f#c#]	*k[f#c#]
*D:	*	*D:	*	*	*D:	*	*D:	*	*D:	*	*D:	*	*D:	*	*D:	*	*D:	*D:	*D:
*M3/4	*	*M3/4	*	*	*M3/4	*	*M3/4	*	*M3/4	*	*M3/4	*	*M3/4	*	*M3/4	*	*M3/4	*M3/4	*M3/4
=1	=1	=1	=1	=1	=1	=1	=1	=1	=1	=1	=1	=1	=1	=1	=1	=1	=1	=1	=1
!	!	!	!	!	!	!	!	!	!	!	!	!	!	!	!LO:TX:t=P:problem=znaki cc# f#	!	!	!	!
!	!	!	!	!	!	!	!	!	!LO:TX:a:t=1.	!	!	!	!	!	!LO:TX:a:t=1.	!	!	!	!
!LO:TX:a:t=Andante	!	!LO:TX:a:i:t=Andante.	!	!	!LO:TX:a:t=Andante.	!	!LO:TX:a:t=Andante.	!	!LO:TX:a:t=Andante.	!	!LO:TX:a:i:t=Andante.	!	!LO:TX:a:i:t=Andante.	!	!LO:TX:a:t=Andante.	!	!LO:TX:a:t=Andante	!LO:TX:a:i:t=Andante.	!LO:TX:a:t=Andante.
4d\	.	4d\	.	.	8r	.	8r	.	2.r	.	2.r	.	2.r	.	2.r	.	1.r	1.r	1.r
.	.	.	.	.	8ff#\L|	.	8dd\L|	.	.	.	.	.	.	.	.	.	.	.	.
!LO:TX:a:t=Tutti	!	!LO:TX:a:t=Tutti	!	!	!	!	!	!	!	!	!	!	!	!	!	!	!	!	!
4D/	.	4D/	.	.	8dd\|	.	8ff#\|	.	.	.	.	.	.	.	.	.	.	.	.
.	.	.	.	.	8ff#\|	.	8dd\|	.	.	.	.	.	.	.	.	.	.	.	.
4r	.	4r	.	.	8gg\|	.	8bb\|	.	.	.	.	.	.	.	.	.	.	.	.
.	.	.	.	.	8ee\J|	.	8gg#X\J|	.	.	.	.	.	.	.	.	.	.	.	.
=2	=2	=2	=2	=2	=2	=2	=2	=2	=2	=2	=2	=2	=2	=2	=2	=2	=2	=2	=2
4.D\	.	4.D\	.	.	4.ff#\	.	4.aa\	.	4.D\	Ky-	4.F#/	Ky-	4.a\	Ky-	4.ff#\	Ky-	.	.	.
8E\	.	8E\	.	.	8ee\	.	8ggn\	.	8E\	-ri-	8G/	-ri-	8g\	-ri-	8ee\	-ri-	.	.	.
4F#\	.	4F#\	6	.	4dd\	.	4ff#\	.	4F#\	-e	4A/	-e	4f#\	-e	4dd\	-e	.	.	.
=3	=3	=3	=3	=3	=3	=3	=3	=3	=3	=3	=3	=3	=3	=3	=3	=3	=3	=3	=3
4E\	.	4E\	.	.	4ee\|	.	4gg\|	.	4E\	e-	4B\	e-	4g\|	E-	4ee\|	e,-	2.r	2.r	2.r
4A\	.	4A\	6 4	.	(4dd\	.	(4ff#\	.	(4A\	-lei-	2A/	-lei-	(4f#\	-lei-	(4dd\	-lei-	.	.	.
4AA/	.	4AA/	5 3	.	4cc#\)	.	4ee\)	.	4AA/)	.	.	.	4e\)	.	4cc#\)	.	.	.	.
=4	=4	=4	=4	=4	=4	=4	=4	=4	=4	=4	=4	=4	=4	=4	=4	=4	=4	=4	=4
.	.	.	.	.	8qqcc#/	.	8qqee/	.	.	.	.	.	8qqe/	.	8qqcc#/	.	.	.	.
*2\right	*	*2\right	*	*	*2\right	*	*2\right	*	*	*	*	*	*2\right	*	*2\right	*	*	*	*
2D\	.	2D\	.	.	2dd\	.	2ff#\	.	2D/	-son.	2A/	-son	2f#\	-son	2dd\	-son	4D/	16dd\LL	16ff#\LL
.	.	.	.	.	.	.	.	.	.	.	.	.	.	.	.	.	.	16a\	16ee\
.	.	.	.	.	.	.	.	.	.	.	.	.	.	.	.	.	.	16dd\	16ff#\
.	.	.	.	.	.	.	.	.	.	.	.	.	.	.	.	.	.	16ee\JJ	16gg\JJ
.	.	.	.	.	.	.	.	.	.	.	.	.	.	.	.	.	8D/L	8dd\L	8ff#\L
.	.	.	.	.	.	.	.	.	.	.	.	.	.	.	.	.	8D/	8ff#\J	8aa\J
4r	.	4r	.	.	4r	.	4r	.	4r	.	4r	.	4r	.	4r	.	8AA/	8a\L	8ee\L
.	.	.	.	.	.	.	.	.	.	.	.	.	.	.	.	.	8AA/J	8ee\J	8gg\J
=5	=5	=5	=5	=5	=5	=5	=5	=5	=5	=5	=5	=5	=5	=5	=5	=5	=5	=5	=5
!	!	!	!	!	!	!	!	!	!	!	!	!	!	!	!LO:TX:a:t=4.	!	!	!	!
4D/	.	4D/	.	.	8r	.	8r	.	2.r	.	2.r	.	2.r	.	0.r	.	4D/	4dd\	4ff#\
.	.	.	.	.	8f#/L	.	8d/L	.	.	.	.	.	.	.	.	.	.	.	.
4DD/	.	4DD/	.	.	8d/	.	8f#/	.	.	.	.	.	.	.	.	.	4r	4r	4r
.	.	.	.	.	8f#/	.	8d/	.	.	.	.	.	.	.	.	.	.	.	.
4r	.	4r	.	.	8g/	.	8b/	.	.	.	.	.	.	.	.	.	4r	4r	4r
.	.	.	.	.	8e/J	.	8g#X/J	.	.	.	.	.	.	.	.	.	.	.	.
=6	=6	=6	=6	=6	=6	=6	=6	=6	=6	=6	=6	=6	=6	=6	=6	=6	=6	=6	=6
4.D\	.	4.D\	.	.	4.f#/	.	4.a/	.	(4.D\	Chri-	(4.f#\	Chri-	(4.a\	Chri-	.	.	1.r	1.r	1.r
8E\	.	8E\	.	.	8e/	.	8gn/	.	8E\)	.	8e\)	.	8g\)	.	.	.	.	.	.
4F#\	.	4F#\	6	.	4d/	.	4f#/	.	4F#\	-ſte	4d\	-ſte	4f#\	-ſte	.	.	.	.	.
=7	=7	=7	=7	=7	=7	=7	=7	=7	=7	=7	=7	=7	=7	=7	=7	=7	=7	=7	=7
4E\	.	4E\	.	.	(4e/	.	4g/|	.	4E\	e-	4e\|	e-	4g\|	e-	.	.	.	.	.
4A\	.	4A\	.	.	4d/)	.	(4f#/	.	(4A\	-lei-	(4d\	-lei-	(4f#\	-lei-	.	.	.	.	.
4AA/	.	4AA/	5 3	.	4c#/|	.	4e/)	.	4AA/)	.	4c#\)	.	4e\)	.	.	.	.	.	.
=8	=8	=8	=8	=8	=8	=8	=8	=8	=8	=8	=8	=8	=8	=8	=8	=8	=8	=8	=8
.	.	.	.	.	8qqc#/	.	8qqe/	.	.	.	8qqc#/	.	8qqe/	.	.	.	.	.	.
*	*	*	*	*	*	*	*	*	*	*	*2\right	*	*	*	*	*	*	*	*
2D\	.	2D\	.	.	2d/	.	2f#/	.	2D/	-son	2d\	-son	2f#\	-son.	.	.	4D/	16dd\LL	16ff#\LL
.	.	.	.	.	.	.	.	.	.	.	.	.	.	.	.	.	.	16a\	16ee\
.	.	.	.	.	.	.	.	.	.	.	.	.	.	.	.	.	.	16dd\	16ff#\
.	.	.	.	.	.	.	.	.	.	.	.	.	.	.	.	.	.	16ee\JJ	16gg\JJ
.	.	.	.	.	.	.	.	.	.	.	.	.	.	.	.	.	8D/L	8dd\L	8ff#\L
.	.	.	.	.	.	.	.	.	.	.	.	.	.	.	.	.	8D/	8ff#\J	8aa\
!	!	!	!	!	!	!	!	!	!	!	!	!	!	!	!	!	!	!LO:TX:t=P:problem=mixed beam	!
4r	.	4r	.	.	4r	.	4r	.	4r	.	4r	.	4r	.	.	.	8AA/	8a/L	8ee\
.	.	.	.	.	.	.	.	.	.	.	.	.	.	.	.	.	8AA/J	8ee\J	8gg\J
=9	=9	=9	=9	=9	=9	=9	=9	=9	=9	=9	=9	=9	=9	=9	=9	=9	=9	=9	=9
!	!	!	!	!	!	!	!	!	!LO:TX:a:t=3.	!	!	!	!	!	!	!	!	!	!
4F#\	.	4F#\	6	.	2.r	.	(4.a/	.	1.r	.	1.r	.	2.r	.	4.a\	Ky-	4D/	4dd\	4ff#\
4D\	.	4D\	.	.	.	.	.	.	.	.	.	.	.	.	.	.	4r	4r	4r
.	.	.	.	.	.	.	8dd\)	.	.	.	.	.	.	.	8dd\	-ri-	.	.	.
4A\	.	4A\	.	.	.	.	4cc#\|	.	.	.	.	.	.	.	4cc#\	-e	4r	4r	4r
=10	=10	=10	=10	=10	=10	=10	=10	=10	=10	=10	=10	=10	=10	=10	=10	=10	=10	=10	=10
*	*	*	*	*	*	*	*	*	*	*	*	*	*	*	*	*ij	*	*	*
!	!	!	!	!	!	!	!	!	!	!	!	!	!	!	!	!	!LO:TX:a:t=6.	!LO:TX:a:t=6.	!LO:TX:a:t=6.
4F#\	.	4F#\	6	.	4.a/	.	(4.dd\	.	.	.	.	.	4.a\	Ky-	4.dd\	Ky-	0.r	0.r	0.r
4D/	.	4D/	.	.	.	.	.	.	.	.	.	.	.	.	.	.	.	.	.
.	.	.	.	.	8dd\	.	8ff#\)	.	.	.	.	.	8dd\	-ri-	8ff#\	-ri-	.	.	.
4AA/	.	4AA/	.	.	4cc#\|	.	4ee\|	.	.	.	.	.	4cc#\	-e	4ee\	-e	.	.	.
*	*	*	*	*	*	*	*	*	*	*	*	*	*	*	*	*Xij	*	*	*
!	!	!LO:LB:g=original	!	!	!	!	!	!	!	!	!	!	!	!	!	!	!	!	!
=11	=11	=11	=11	=11	=11	=11	=11	=11	=11	=11	=11	=11	=11	=11	=11	=11	=11	=11	=11
4F#\	.	4F#\	6	.	(4.dd\	.	(4.a/	.	2.r	.	4.A\	Ky-	1.r	.	1.r	.	.	.	.
4D\	.	4D\	.	.	.	.	.	.	.	.	.	.	.	.	.	.	.	.	.
.	.	.	.	.	8ff#\)	.	8dd\)	.	.	.	8d\	-ri-	.	.	.	.	.	.	.
4A\	.	4A\	.	.	4ee\|	.	4cc#\|	.	.	.	4c#\	-e	.	.	.	.	.	.	.
!	!	!	!	!	!LO:LB:g=original	!	!LO:LB:g=original	!	!	!	!	!	!	!	!	!	!	!	!
=12	=12	=12	=12	=12	=12	=12	=12	=12	=12	=12	=12	=12	=12	=12	=12	=12	=12	=12	=12
*	*	*	*	*	*	*	*	*	*	*	*	*ij	*	*	*	*	*	*	*
4F#\	.	4F#\	6	.	(4.a/	.	(4.dd\	.	4.A\	Ky-	4.d\	Ky-	.	.	.	.	.	.	.
4D/	.	4D/	.	.	.	.	.	.	.	.	.	.	.	.	.	.	.	.	.
.	.	.	.	.	8dd\)	.	8ff#\)	.	8d\	-ri-	8f#\	-ri-	.	.	.	.	.	.	.
4AA/	.	4AA/	.	.	4cc#\|	.	4ee\|	.	4c#\	-e	4e\	-e	.	.	.	.	.	.	.
*	*	*	*	*	*	*	*	*	*	*	*	*Xij	*	*	*	*	*	*	*
!LO:LB:g=original	!	!	!	!	!	!	!	!	!	!	!LO:LB:g=original	!	!LO:LB:g=original	!	!	!	!	!	!
=13	=13	=13	=13	=13	=13	=13	=13	=13	=13	=13	=13	=13	=13	=13	=13	=13	=13	=13	=13
!	!	!LO:TX:b:t=uniſ&colon;	!	!	!LO:TX:a:t=3.	!	!	!	!	!	!	!	!	!	!	!	!	!	!
8D\L|	.	8D\L|	.	.	1.r	.	1.r	.	4d\	Chri-	4d\	Chri-	4dd\	Chri-	4dd\	Chri-	.	.	.
8A\J|	.	8A\J|	.	.	.	.	.	.	.	.	.	.	.	.	.	.	.	.	.
8C#\L|	.	8C#\L|	.	.	.	.	.	.	4c#\	-ſte	4c#\	-ſte	4cc#\	-ſte	4cc#\	-ſte	.	.	.
8A\J|	.	8A\J|	.	.	.	.	.	.	.	.	.	.	.	.	.	.	.	.	.
8BB\L|	.	8BB\L|	.	.	.	.	.	.	4B\	e-	4B\	e-	4b\	e-	4b\	e-	.	.	.
8A\J|	.	8A\J|	.	.	.	.	.	.	.	.	.	.	.	.	.	.	.	.	.
!	!	!	!	!	!	!	!	!	!LO:LB:g=original	!	!	!	!	!	!	!	!	!	!
=14	=14	=14	=14	=14	=14	=14	=14	=14	=14	=14	=14	=14	=14	=14	=14	=14	=14	=14	=14
8AA\L|	.	8AA\L|	.	.	.	.	.	.	(4A\	-lei-	(4A\	-lei-	(4a\	-lei-	(4a\	-lei,-	1.r	1.r	1.r
8A\J|	.	8A\J|	.	.	.	.	.	.	.	.	.	.	.	.	.	.	.	.	.
!LO:TX:t=P:problem=mixed beam	!	!	!	!	!	!	!	!	!	!	!	!	!	!	!	!	!	!	!
8BB/L|	.	8BB\L|	.	.	.	.	.	.	4B\)	.	4B\)	.	4b\)	.	4b,\)	.	.	.	.
8A\J|	.	8A\J|	.	.	.	.	.	.	.	.	.	.	.	.	.	.	.	.	.
!LO:TX:t=P:problem=mixed beam	!	!	!	!	!	!	!	!	!	!	!	!	!	!	!	!	!	!	!
8C#/L|	.	8C#\L|	.	.	.	.	.	.	4c#\	-son	4c#\	-son	4cc#\	-son	4cc#\	-son	.	.	.
8A\J|	.	8A\J|	.	.	.	.	.	.	.	.	.	.	.	.	.	.	.	.	.
=15	=15	=15	=15	=15	=15	=15	=15	=15	=15	=15	=15	=15	=15	=15	=15	=15	=15	=15	=15
8D\L|	.	8D\L|	.	.	2.r	.	2.r	.	4d\	e-	4d\	e-	4dd\	E-	4dd,\	e,-	.	.	.
8A\J|	.	8A\J|	.	.	.	.	.	.	.	.	.	.	.	.	.	.	.	.	.
8C#\L|	.	8C#\L|	.	.	.	.	.	.	(4c#\	-lei-	(4c#\	-lei-	(4cc#\	-lei-	(4cc#\	-lei-	.	.	.
8A\J|	.	8A\J|	.	.	.	.	.	.	.	.	.	.	.	.	.	.	.	.	.
!LO:TX:t=P:problem=mixed beam	!	!	!	!	!	!	!	!	!	!	!	!	!	!	!	!	!	!	!
8BB/L|	.	8BB\L|	.	.	.	.	.	.	4B\)	.	4B\)	.	4b\)	.	4b\)	.	.	.	.
8A\J|	.	8A\J|	.	.	.	.	.	.	.	.	.	.	.	.	.	.	.	.	.
!	!	!	!	!	!	!	!	!	!	!	!	!	!	!	!LO:LB:g=original	!	!	!	!
=16	=16	=16	=16	=16	=16	=16	=16	=16	=16	=16	=16	=16	=16	=16	=16	=16	=16	=16	=16
*	*	*	*	*	*	*	*	*	*2\right	*	*	*	*	*	*	*	*	*	*
2AA/	.	2AA/	.	.	8r	.	16r	.	2A\	-son	2A/	-son	2a\	-son	2a\	-son	4r	4r	4r
.	.	.	.	.	.	.	16a\LL	.	.	.	.	.	.	.	.	.	.	.	.
.	.	.	.	.	16a\LL	.	16cc#\	.	.	.	.	.	.	.	.	.	.	.	.
.	.	.	.	.	16cc#\JJ	.	16ee\JJ	.	.	.	.	.	.	.	.	.	.	.	.
.	.	.	.	.	(16cc#\LL	.	(16aa\LL	.	.	.	.	.	.	.	.	.	4AA/	4a/	4ee\
.	.	.	.	.	16b\)	.	16gg#X\)	.	.	.	.	.	.	.	.	.	.	.	.
.	.	.	.	.	(16cc#\	.	(16aa\	.	.	.	.	.	.	.	.	.	.	.	.
.	.	.	.	.	16b\JJ)	.	16gg#\JJ)	.	.	.	.	.	.	.	.	.	.	.	.
4r	.	4r	.	.	(16cc#\LL	.	(16aa\LL	.	4r	.	4r	.	4r	.	4r	.	4AA/	4a/	4ee\
.	.	.	.	.	16b\)	.	16gg#\)	.	.	.	.	.	.	.	.	.	.	.	.
.	.	.	.	.	(16cc#\	.	(16aa\	.	.	.	.	.	.	.	.	.	.	.	.
.	.	.	.	.	16b\JJ)	.	16gg#\JJ)	.	.	.	.	.	.	.	.	.	.	.	.
=17	=17	=17	=17	=17	=17	=17	=17	=17	=17	=17	=17	=17	=17	=17	=17	=17	=17	=17	=17
8r	.	8r	.	.	8cc#\L	.	8aa\L	.	8r	.	8r	.	8r	.	8r	.	8r	8r	8r
8A\L	.	8A\L	.	.	8cc#\	.	8ee\	.	16A\	Ky-	16c#\	Ky-	16a\	Ky-	16ee\	Ky-	8AA/L	8a/L	8ee\L
.	.	.	.	.	.	.	.	.	16A\	-ri-	16c#\	-ri-	16a\	-ri-	16ee\	-ri-	.	.	.
8d\	.	8d\	.	.	8dd\	.	8ff#\	.	8d\	-e	8d\	-e	8a\	-e	8ff#\	-e	8D/	8dd/	8ff#\
8A\	.	8A\	.	.	8cc#\J	.	8ee\J	.	8A\	e-	8c#\	e-	8a\	e-	8ee\	e-	8AA/J	8a/J	8ee\J
8F#\	.	8F#\	6	.	4dd\	.	4ff#\	.	(8F#\L	-lei-	4d\	-lei-	4a\	-lei-	4ff#\	-lei-	4D/	4dd\	4ff#\
8D\J	.	8D\J	.	.	.	.	.	.	8D\J)	.	.	.	.	.	.	.	.	.	.
=18	=18	=18	=18	=18	=18	=18	=18	=18	=18	=18	=18	=18	=18	=18	=18	=18	=18	=18	=18
2AA/	.	2AA/	.	.	8cc#\L	.	16ee\LL	.	2A\	-son	2c#\	-son	2a\	-son	2ee\	-son	4AA/	4a/	4ee\
.	.	.	.	.	.	.	16a\	.	.	.	.	.	.	.	.	.	.	.	.
.	.	.	.	.	16a\L	.	16cc#\	.	.	.	.	.	.	.	.	.	.	.	.
.	.	.	.	.	16cc#\JJ	.	16ee\JJ	.	.	.	.	.	.	.	.	.	.	.	.
.	.	.	.	.	(16cc#\LL	.	(16aa\LL	.	.	.	.	.	.	.	.	.	4r	4r	4r
.	.	.	.	.	16b\)	.	16gg#X\)	.	.	.	.	.	.	.	.	.	.	.	.
.	.	.	.	.	(16cc#\	.	(16aa\	.	.	.	.	.	.	.	.	.	.	.	.
.	.	.	.	.	16b\JJ)	.	16gg#\JJ)	.	.	.	.	.	.	.	.	.	.	.	.
4r	.	4r	.	.	(16cc#\LL	.	(16aa\LL	.	4r	.	4r	.	4r	.	4r	.	4r	4r	4r
.	.	.	.	.	16b\)	.	16gg#\)	.	.	.	.	.	.	.	.	.	.	.	.
.	.	.	.	.	(16cc#\	.	(16aa\	.	.	.	.	.	.	.	.	.	.	.	.
.	.	.	.	.	16b\JJ)	.	16gg#\JJ)	.	.	.	.	.	.	.	.	.	.	.	.
=19	=19	=19	=19	=19	=19	=19	=19	=19	=19	=19	=19	=19	=19	=19	=19	=19	=19	=19	=19
8r	.	8r	.	.	8cc#\L	.	8aa\L	.	8r	.	8r	.	8r	.	8r	.	4AA/	8r	8r
!LO:TX:t=P:problem=mixed beam	!	!LO:TX:t=P:problem=mixed beam	!	!	!	!	!	!	!	!	!	!	!	!	!	!	!	!	!
8A\L	.	8A\L	.	.	8a\	.	8cc#\	.	8A\	Chri-	8e\	Chri-	8a\	Chri-	8cc#\	Chri-	.	8ee\L	8aa\L
8G#X\	.	8G#X\	6 5	.	8b\	.	8dd\	.	8G#X\	-ſte	8e\	-ſte	8b\	-ſte	8dd\	-ſte	4r	8ee\	8bb\
8A\	.	8A\	.	.	8a\J	.	8cc#\J	.	8A\	e-	8e\	e-	8a\	e-	8cc#\	e-	.	8ee\J	8aa\J
8E\	.	8E\	7 #	.	4b/	.	4dd\	.	4E\	-lei-	4g#X\	-lei-	4b\	-lei-	4dd\	-lei-	4r	4ee\	4gg#X\
8EE/J	.	8EE/J	.	.	.	.	.	.	.	.	.	.	.	.	.	.	.	.	.
!	!	!LO:LB:g=original	!	!	!	!	!	!	!	!	!	!	!	!	!	!	!	!	!
=20	=20	=20	=20	=20	=20	=20	=20	=20	=20	=20	=20	=20	=20	=20	=20	=20	=20	=20	=20
!	!	!	!	!	!LO:TX:t=P:problem=mixed beam	!	!LO:TX:t=P:problem=mixed beam	!	!	!	!	!	!	!	!	!	!	!	!
4AA/	.	4AA/	.	.	8a\L	.	16cc#\LL	.	4AA/	-son	4e\	-son	4a\	-son	4cc#\	-son	4AA/	4a/	4aa\
.	.	.	.	.	.	.	16A/	.	.	.	.	.	.	.	.	.	.	.	.
.	.	.	.	.	16A/L	.	16c#/	.	.	.	.	.	.	.	.	.	.	.	.
.	.	.	.	.	16c#/JJ	.	16e/JJ	.	.	.	.	.	.	.	.	.	.	.	.
4r	.	4r	.	.	(16c#/LL	.	(16a/LL	.	4r	.	4r	.	4r	.	4r	.	4r	4r	4r
.	.	.	.	.	16B/)	.	16g#X/)	.	.	.	.	.	.	.	.	.	.	.	.
.	.	.	.	.	(16c#/	.	(16a/	.	.	.	.	.	.	.	.	.	.	.	.
.	.	.	.	.	16B/JJ)	.	16g#/JJ)	.	.	.	.	.	.	.	.	.	.	.	.
4r	.	4r	.	.	(16c#/LL	.	(16a/LL	.	4r	.	4r	.	4r	.	4r	.	4r	4r	4r
.	.	.	.	.	16B/)	.	16g#/)	.	.	.	.	.	.	.	.	.	.	.	.
.	.	.	.	.	(16c#/	.	(16a/	.	.	.	.	.	.	.	.	.	.	.	.
.	.	.	.	.	16B/JJ)	.	16g#/JJ)	.	.	.	.	.	.	.	.	.	.	.	.
!	!	!	!	!	!LO:LB:g=original	!	!	!	!	!	!	!	!	!	!	!	!LO:LB:g=original	!	!LO:LB:g=original
=21	=21	=21	=21	=21	=21	=21	=21	=21	=21	=21	=21	=21	=21	=21	=21	=21	=21	=21	=21
*	*	*clefC1	*	*	*	*	*	*	*	*	*	*	*	*	*	*	*	*	*
*	*	*^	*	*	*	*	*	*	*	*	*	*	*	*	*	*	*	*	*
!LO:TX:a:t=4	!	!	!	!	!	!	!	!	!	!LO:TX:a:t=7.	!	!	!	!LO:TX:a:t=7.	!	!LO:TX:a:t=7.	!	!	!	!
0.r	.	8r	8ryy	.	.	4A/	.	4a/	.	0.r	.	0.r	.	0.r	.	0.r	.	4AA/	4a/	4a/
!	!	!LO:TX:b:t=Solo.	!	!	!	!	!	!	!	!	!	!	!	!	!	!	!	!	!	!
.	.	8ee/L	8cc#\L	.	.	.	.	.	.	.	.	.	.	.	.	.	.	.	.	.
.	.	8ff#/	8dd\	.	.	4r	.	4r	.	.	.	.	.	.	.	.	.	4r	4r	4r
.	.	8ee/J	8cc#\J	.	.	.	.	.	.	.	.	.	.	.	.	.	.	.	.	.
.	.	4ff#/	4dd\	.	.	4r	.	4r	.	.	.	.	.	.	.	.	.	4r	4r	4r
!	!	!	!	!	!	!	!	!LO:LB:g=original	!	!	!	!	!	!	!	!	!	!	!	!
=22	=22	=22	=22	=22	=22	=22	=22	=22	=22	=22	=22	=22	=22	=22	=22	=22	=22	=22	=22	=22
.	.	4ee/	4cc#\	.	.	8r	.	16r	.	.	.	.	.	.	.	.	.	4AA/	4a/	4a/
.	.	.	.	.	.	.	.	16A/LL	.	.	.	.	.	.	.	.	.	.	.	.
.	.	.	.	.	.	16A/LL	.	16c#/	.	.	.	.	.	.	.	.	.	.	.	.
.	.	.	.	.	.	16c#/JJ	.	16e/JJ	.	.	.	.	.	.	.	.	.	.	.	.
.	.	4r	4r	.	.	(16c#/LL	.	(16a/LL	.	.	.	.	.	.	.	.	.	4r	4r	4r
.	.	.	.	.	.	16B/)	.	16g#X/)	.	.	.	.	.	.	.	.	.	.	.	.
.	.	.	.	.	.	(16c#/	.	(16a/	.	.	.	.	.	.	.	.	.	.	.	.
.	.	.	.	.	.	16B/JJ)	.	16g#/JJ)	.	.	.	.	.	.	.	.	.	.	.	.
.	.	4r	4r	.	.	(16c#/LL	.	(16a/LL	.	.	.	.	.	.	.	.	.	4r	4r	4r
.	.	.	.	.	.	16B/)	.	16g#/)	.	.	.	.	.	.	.	.	.	.	.	.
.	.	.	.	.	.	(16c#/	.	(16a/	.	.	.	.	.	.	.	.	.	.	.	.
.	.	.	.	.	.	16B/JJ)	.	16g#/JJ)	.	.	.	.	.	.	.	.	.	.	.	.
!	!	!	!	!	!	!	!	!	!	!	!	!	!	!	!	!	!	!	!LO:LB:g=original	!
=23	=23	=23	=23	=23	=23	=23	=23	=23	=23	=23	=23	=23	=23	=23	=23	=23	=23	=23	=23	=23
.	.	8r	8ryy	.	.	4A/	.	4a/	.	.	.	.	.	.	.	.	.	4AA/	4a/	4a/
.	.	8cc#/L	8a\L	.	.	.	.	.	.	.	.	.	.	.	.	.	.	.	.	.
.	.	8dd/	8b\	.	.	4r	.	4r	.	.	.	.	.	.	.	.	.	4r	4r	4r
.	.	8cc#/J	8a\J	.	.	.	.	.	.	.	.	.	.	.	.	.	.	.	.	.
.	.	4dd/	4b\	.	.	4r	.	4r	.	.	.	.	.	.	.	.	.	4r	4r	4r
=24	=24	=24	=24	=24	=24	=24	=24	=24	=24	=24	=24	=24	=24	=24	=24	=24	=24	=24	=24	=24
!	!	!	!	!	!	!LO:TX:a:t=3.	!	!LO:TX:a:t=3.	!	!	!	!	!	!	!	!	!	!	!	!
.	.	4cc#/	4a\	.	.	1.r	.	1.r	.	.	.	.	.	.	.	.	.	4AA/	16a/LL	16ee\LL
.	.	.	.	.	.	.	.	.	.	.	.	.	.	.	.	.	.	.	16f#/	16dd\
.	.	.	.	.	.	.	.	.	.	.	.	.	.	.	.	.	.	.	16a/	16ee\
.	.	.	.	.	.	.	.	.	.	.	.	.	.	.	.	.	.	.	16dd/JJ	16ff#\JJ
.	.	4r	4r	.	.	.	.	.	.	.	.	.	.	.	.	.	.	4r	8a\L	8ee\L
.	.	.	.	.	.	.	.	.	.	.	.	.	.	.	.	.	.	.	8ee\	8gg\
.	.	4r	4r	.	.	.	.	.	.	.	.	.	.	.	.	.	.	4AA/	8dd\	8ff#\
.	.	.	.	.	.	.	.	.	.	.	.	.	.	.	.	.	.	.	8a\J	8ee\J
*	*	*v	*v	*	*	*	*	*	*	*	*	*	*	*	*	*	*	*	*	*
=25	=25	=25	=25	=25	=25	=25	=25	=25	=25	=25	=25	=25	=25	=25	=25	=25	=25	=25	=25
*	*	*clefF4	*	*	*	*	*	*	*	*	*	*	*	*	*	*	*	*	*
!LO:TX:a:t=Tutti	!	!LO:TX:b:t=Tutti	!	!	!	!	!	!	!	!	!	!	!	!	!	!	!	!	!
4d\	.	4d\	.	.	.	.	.	.	1.r	.	1.r	.	1.r	.	1.r	.	4D/	16dd\LL	16ff#\LL
.	.	.	.	.	.	.	.	.	.	.	.	.	.	.	.	.	.	16a\	16ee\
.	.	.	.	.	.	.	.	.	.	.	.	.	.	.	.	.	.	16dd\	16ff#\
.	.	.	.	.	.	.	.	.	.	.	.	.	.	.	.	.	.	16ee\JJ	16gg\JJ
4r	.	4r	.	.	.	.	.	.	.	.	.	.	.	.	.	.	4r	8dd\L	8ff#\L
.	.	.	.	.	.	.	.	.	.	.	.	.	.	.	.	.	.	8ff#\	8aa\
4r	.	4r	.	.	.	.	.	.	.	.	.	.	.	.	.	.	4D/	8ee\	8gg\
.	.	.	.	.	.	.	.	.	.	.	.	.	.	.	.	.	.	8dd\J	8ff#\J
=26	=26	=26	=26	=26	=26	=26	=26	=26	=26	=26	=26	=26	=26	=26	=26	=26	=26	=26	=26
4A\	.	4A\	.	.	2.r	.	2.r	.	.	.	.	.	.	.	.	.	4AA/	16ee\LL	16ccc#\LL
.	.	.	.	.	.	.	.	.	.	.	.	.	.	.	.	.	.	16dd\	16bb\
.	.	.	.	.	.	.	.	.	.	.	.	.	.	.	.	.	.	16ee\	16ccc#\
.	.	.	.	.	.	.	.	.	.	.	.	.	.	.	.	.	.	16ff#\JJ	16ddd\JJ
4r	.	4r	.	.	.	.	.	.	.	.	.	.	.	.	.	.	4r	8ee\L	8ccc#\L
.	.	.	.	.	.	.	.	.	.	.	.	.	.	.	.	.	.	8gg\	8eee\
4r	.	4r	.	.	.	.	.	.	.	.	.	.	.	.	.	.	4AA/	8ff#\	8ddd\
.	.	.	.	.	.	.	.	.	.	.	.	.	.	.	.	.	.	8ee\J	8ccc#\J
=27	=27	=27	=27	=27	=27	=27	=27	=27	=27	=27	=27	=27	=27	=27	=27	=27	=27	=27	=27
4D\	.	4D/	.	.	8r	.	16r	.	2.r	.	2.r	.	2.r	.	2.r	.	4D/	4ff#\	4ddd\
.	.	.	.	.	.	.	16dd\LL	.	.	.	.	.	.	.	.	.	.	.	.
.	.	.	.	.	16dd\LL	.	16ff#\	.	.	.	.	.	.	.	.	.	.	.	.
.	.	.	.	.	16ff#\JJ	.	16aa\JJ	.	.	.	.	.	.	.	.	.	.	.	.
4r	.	4r	.	.	(16ff#\LL	.	(16ddd\LL	.	.	.	.	.	.	.	.	.	4r	4r	4r
.	.	.	.	.	16ee\)	.	16ccc#\)	.	.	.	.	.	.	.	.	.	.	.	.
.	.	.	.	.	(16ff#\	.	(16ddd\	.	.	.	.	.	.	.	.	.	.	.	.
.	.	.	.	.	16ee\JJ)	.	16ccc#\JJ)	.	.	.	.	.	.	.	.	.	.	.	.
4r	.	4r	.	.	(16ff#\LL	.	(16ddd\LL	.	.	.	.	.	.	.	.	.	4r	4r	4r
.	.	.	.	.	16ee\)	.	16ccc#\)	.	.	.	.	.	.	.	.	.	.	.	.
.	.	.	.	.	(16ff#\	.	(16ddd\	.	.	.	.	.	.	.	.	.	.	.	.
.	.	.	.	.	16ee\JJ)	.	16ccc#\JJ)	.	.	.	.	.	.	.	.	.	.	.	.
!LO:LB:g=original	!	!	!	!	!	!	!	!	!	!	!LO:LB:g=original	!	!LO:LB:g=original	!	!	!	!	!	!
=28	=28	=28	=28	=28	=28	=28	=28	=28	=28	=28	=28	=28	=28	=28	=28	=28	=28	=28	=28
8r	.	8r	.	.	8ff#\L	.	8ddd\L	.	8r	.	8r	.	8r	.	8r	.	4r	8r	8r
8D\L	.	8D\L	.	.	8ff#\	.	8aa\	.	16D/	Ky-	16f#\	Ky-	16a\	Ky-	16dd\	Ky-	.	8ff#\L	8aa\L
.	.	.	.	.	.	.	.	.	16D/	-ri-	16f#\	-ri-	16a\	-ri-	16dd\	-ri-	.	.	.
8G\	.	8G\	.	.	8gg\	.	8bb\	.	8G\	-e	8g\	-e	8b\	-e	8dd\	-e	4D/	8gg\	8bb\
8D\	.	8D\	.	.	8ff#\J	.	8aa\J	.	8D\	e-	8f#\	e-	8a\	e-	8dd\	e-	.	8ff#\J	8aa\J
8BB\	.	8BB\	6	.	4gg\	.	4bb\	.	(8BB/L	-lei-	4g\	-lei-	4b\	-lei-	4dd\	-lei-	4D/	4gg\	4bb\
8GG\J	.	8GG\J	.	.	.	.	.	.	8GG/J)	.	.	.	.	.	.	.	.	.	.
!	!	!LO:LB:g=original	!	!	!	!	!	!	!LO:LB:g=original	!	!	!	!	!	!	!	!	!	!
=29	=29	=29	=29	=29	=29	=29	=29	=29	=29	=29	=29	=29	=29	=29	=29	=29	=29	=29	=29
2D/	.	2D/	.	.	8ff#\L	.	16aa\LL	.	2D/	-son	2f#\	-son	2a\	-son	2dd\	-son	4D/	4ff#\	4aa\
.	.	.	.	.	.	.	16dd\	.	.	.	.	.	.	.	.	.	.	.	.
.	.	.	.	.	16dd\L	.	16ff#\	.	.	.	.	.	.	.	.	.	.	.	.
.	.	.	.	.	16ff#\JJ	.	16aa\JJ	.	.	.	.	.	.	.	.	.	.	.	.
.	.	.	.	.	(16ff#\LL	.	(16ddd\LL	.	.	.	.	.	.	.	.	.	4r	4r	4r
.	.	.	.	.	16ee\)	.	16ccc#\)	.	.	.	.	.	.	.	.	.	.	.	.
.	.	.	.	.	(16ff#\	.	(16ddd\	.	.	.	.	.	.	.	.	.	.	.	.
.	.	.	.	.	16ee\JJ)	.	16ccc#\JJ)	.	.	.	.	.	.	.	.	.	.	.	.
4r	.	4r	.	.	(16ff#\LL	.	(16ddd\LL	.	4r	.	4r	.	4r	.	4r	.	4r	4r	4r
.	.	.	.	.	16ee\)	.	16ccc#\)	.	.	.	.	.	.	.	.	.	.	.	.
.	.	.	.	.	(16ff#\	.	(16ddd\	.	.	.	.	.	.	.	.	.	.	.	.
.	.	.	.	.	16ee\JJ)	.	16ccc#\JJ)	.	.	.	.	.	.	.	.	.	.	.	.
!	!	!	!	!	!	!	!	!	!	!	!	!	!	!	!LO:LB:g=original	!	!	!	!
=30	=30	=30	=30	=30	=30	=30	=30	=30	=30	=30	=30	=30	=30	=30	=30	=30	=30	=30	=30
8r	.	8r	.	.	8ff#\L	.	8ddd\L	.	8r	.	8r	.	8r	.	8r	.	8r	8r	8r
!LO:TX:t=P:problem=mixed beam	!	!LO:TX:t=P:problem=mixed beam	!	!	!	!	!	!	!	!	!	!	!	!	!	!	!	!	!
8d\L	.	8d\L	.	.	8dd\	.	8ff#\	.	8d\	Chri-	8A/	Chri-	8f#\	Chri-	8dd\	Chri-	8D/L	8dd\L	8ff#\L
8c#\	.	8c#\	6 5	.	8ee\	.	8gg\	.	8c#\	-ſte	8A/	-ſte	8g\	-ſte	8ee\	-ſte	8AA/	8ee\	8gg\
8d\	.	8d\	.	.	8dd\J	.	8ff#\J	.	8d\	e-	8A/	e-	8f#\	e-	8dd\	e-	8D/J	8dd\J	8ff#\J
8A\	.	8A\	7	.	4ee\	.	4gg\	.	4A\	-lei-	4c#\	-lei-	4g\	-lei-	4ee\	-lei-	4AA/	4ee\	4gg\
8AA/J	.	8AA/J	.	.	.	.	.	.	.	.	.	.	.	.	.	.	.	.	.
!	!	!	!	!	!LO:LB:g=original	!	!	!	!	!	!	!	!	!	!	!	!	!	!
=31	=31	=31	=31	=31	=31	=31	=31	=31	=31	=31	=31	=31	=31	=31	=31	=31	=31	=31	=31
4D\	.	4D/	.	.	8dd\L	.	16ff#\LL	.	4D/	-son	4A/	-son	4f#\	-son	4dd\	-son	4D/	4dd\	4ff#\
.	.	.	.	.	.	.	16dd\	.	.	.	.	.	.	.	.	.	.	.	.
.	.	.	.	.	16dd\L	.	16ff#\	.	.	.	.	.	.	.	.	.	.	.	.
.	.	.	.	.	16ff#\JJ	.	16aa\JJ	.	.	.	.	.	.	.	.	.	.	.	.
4r	.	4r	.	.	(16ff#\LL	.	(16ddd\LL	.	4r	.	4r	.	4r	.	4r	.	4r	4r	4r
.	.	.	.	.	16ee\)	.	16ccc#\)	.	.	.	.	.	.	.	.	.	.	.	.
.	.	.	.	.	(16ff#\	.	(16ddd\	.	.	.	.	.	.	.	.	.	.	.	.
.	.	.	.	.	16ee\JJ)	.	16ccc#\JJ)	.	.	.	.	.	.	.	.	.	.	.	.
4r	.	4r	.	.	(16ff#\LL	.	(16ddd\LL	.	4r	.	4r	.	4r	.	4r	.	4r	4r	4r
.	.	.	.	.	16ee\)	.	16ccc#\)	.	.	.	.	.	.	.	.	.	.	.	.
.	.	.	.	.	(16ff#\	.	(16ddd\	.	.	.	.	.	.	.	.	.	.	.	.
.	.	.	.	.	16ee\JJ)	.	16ccc#\JJ)	.	.	.	.	.	.	.	.	.	.	.	.
!	!	!	!	!	!	!	!LO:LB:g=original	!	!	!	!	!	!	!	!	!	!	!	!
=32	=32	=32	=32	=32	=32	=32	=32	=32	=32	=32	=32	=32	=32	=32	=32	=32	=32	=32	=32
8r	.	8r	.	.	8ff#\L	.	8ddd\L	.	1.r	.	1.r	.	1.r	.	1.r	.	8r	8r	8r
8d\L	.	8d\L	.	.	8ff#\	.	8aa\	.	.	.	.	.	.	.	.	.	8D/L	8ff#\L	8aa\L
8c#\	.	8c#\	7 5	.	8gg\	.	8bb\	.	.	.	.	.	.	.	.	.	8D/	8gg\	8bb\
8d\	.	8d\	5 3	.	8ff#\	.	8aa\	.	.	.	.	.	.	.	.	.	8D/J	8ff#\	8aa\
8c#\	.	8c#\	7 5	.	8gg\	.	8bb\	.	.	.	.	.	.	.	.	.	4D/	8gg\	8bb\
8d\J	.	8d\J	5 3	.	8ff#\J	.	8aa\J	.	.	.	.	.	.	.	.	.	.	8ff#\J	8aa\J
!	!	!	!	!	!	!	!	!	!	!	!	!	!	!	!	!	!	!	!LO:LB:g=original
=33	=33	=33	=33	=33	=33	=33	=33	=33	=33	=33	=33	=33	=33	=33	=33	=33	=33	=33	=33
8G\L	.	8G\L	.	.	8gg\L	.	8bb\L	.	.	.	.	.	.	.	.	.	8D/L	8gg\L	8bb\L
8A\	.	8A\	5	.	8cc#\	.	8ee\	.	.	.	.	.	.	.	.	.	8AA/	8a\	8ee\
8G#X\	.	8G#X\	7 5	.	8dd\	.	8ff#\	.	.	.	.	.	.	.	.	.	8D/	8dd\	8ff#\
8A\	.	8A\	5 3	.	8cc#\	.	8ee\	.	.	.	.	.	.	.	.	.	8AA/	8a\	8ee\
8G#\	.	8G#\	7 5	.	8dd\	.	8ff#\	.	.	.	.	.	.	.	.	.	8D/	8dd\	8ff#\
8A\J	.	8A\J	5 3	.	8cc#\J	.	8ee\J	.	.	.	.	.	.	.	.	.	8AA/J	8a\J	8ee\J
=34	=34	=34	=34	=34	=34	=34	=34	=34	=34	=34	=34	=34	=34	=34	=34	=34	=34	=34	=34
!	!	!LO:TX:b:t=Adagio	!	!	!LO:TX:a:t=Adagio	!	!LO:TX:b:t=Adagio	!	!LO:TX:b:t=adagio	!	!LO:TX:b:t=adagio	!	!LO:TX:b:t=Adagio	!	!LO:TX:a:t=Adagio.	!	!LO:TX:a:t=Adagio	!	!
4D/	.	4D/	.	.	4dd\	.	4ff#\	.	4d\	E-	4f#\	e-	4a\	E-	4dd\	E-	4D/	4dd\	4ff#\
*	*	*	*	*	*	*	*	*	*	*	*	*	*	*	*	*	*	*2\right	*2\right
2BB/	.	2BB/	6\	.	2dd\	.	2gg#Xt\	.	2B\	-lei-	2e\	-lei-	2g#X\	-lei-	2dd\	-lei-	8D/L	2eeT\	2gg#Xt\
.	.	.	.	.	.	.	.	.	.	.	.	.	.	.	.	.	8D/	.	.
.	.	.	.	.	.	.	.	.	.	.	.	.	.	.	.	.	8D/	.	.
.	.	.	.	.	.	.	.	.	.	.	.	.	.	.	.	.	8D/J	.	.
=35	=35	=35	=35	=35	=35	=35	=35	=35	=35	=35	=35	=35	=35	=35	=35	=35	=35	=35	=35
2.AA/	.	2.AA/	.	.	2.cc#\	.	2.aa\	.	2A\	-son	2.e\	-son.	2.a\	-son	2.cc#\	-son.	2.AA/	2.ee\	2.aa\
.	.	.	.	.	.	.	.	.	4ryy	.	.	.	.	.	.	.	.	.	.
!	!	!	!	!	!	!	!	!	!	!	!	!	!	!	!	!	!LO:LB:g=original	!LO:LB:g=original	!
=36||	=36||	=36||	=36||	=36||	=36||	=36||	=36||	=36||	=36||	=36||	=36||	=36||	=36||	=36||	=36||	=36||	=36||	=36||	=36||
*	*	*clefF4	*	*	*clefG2	*	*clefG2	*	*clefF4	*	*clefC4	*	*clefC3	*	*clefC1	*	*clefF4	*clefG2	*clefG2
*k[f#c#]	*	*k[f#c#]	*	*	*k[f#c#]	*	*k[f#c#]	*	*k[f#c#]	*	*k[f#c#]	*	*k[f#c#]	*	*k[c#f#]	*	*k[f#c#]	*k[f#c#]	*k[f#c#]
*M2/4	*	*M2/4	*	*	*M2/4	*	*M2/4	*	*M2/4	*	*M2/4	*	*M2/4	*	*M2/4	*	*M2/4	*M2/4	*M2/4
!	!	!	!	!	!	!	!	!	!	!	!	!	!	!	!LO:TX:t=P:problem=znaki cc# f#	!	!	!	!
!LO:TX:b:rj:t=Christe	!	!LO:TX:b:rj:t=Chriſte	!	!	!LO:TX:b:rj:t=Chriſte.	!	!LO:TX:a:t=Allo.	!	!	!	!	!	!LO:TX:a:i:t=Allegro.	!	!LO:TX:a:B:t=Allegro.	!	!LO:TX:a:t=Allegro.	!LO:TX:a:t=Allo.	!LO:TX:a:t=4.
!LO:TX:a:t=Allo	!	!LO:TX:a:t=Allegro	!	!	!LO:TX:a:t=Allegro.	!	!LO:TX:b:rj:t=Chriſte.	!	!LO:TX:a:t=Allegro.	!	!LO:TX:a:t=Allegro	!	!LO:TX:b:t=24.	!	!LO:TX:b:t=24.	!	!LO:TX:b:rj:t=Christe	!LO:TX:b:rj:t=Chriſte	!LO:TX:b:rj:t=Chriſte
4d\	.	4d\|	.	.	4ff#\	.	4aa\	.	0r	.	0r	.	0r	.	0r	.	0r	0r	0r
!	!	!LO:TX:a:i:t=Solo.	!	!	!	!	!	!	!	!	!	!	!	!	!	!	!	!	!
!LO:TX:a:t=Solo.	!	!	!	!	!	!	!	!	!	!	!	!	!	!	!	!	!	!	!
4G\	.	4G\|	.	.	4gg\	.	4bb\	.	.	.	.	.	.	.	.	.	.	.	.
=37	=37	=37	=37	=37	=37	=37	=37	=37	=37	=37	=37	=37	=37	=37	=37	=37	=37	=37	=37
4D\	.	4D/|	.	.	8ff#\	.	8aa\	.	.	.	.	.	.	.	.	.	.	.	.
.	.	.	.	.	4ff#\	.	4ddd\	.	.	.	.	.	.	.	.	.	.	.	.
4r	.	4r	.	.	.	.	.	.	.	.	.	.	.	.	.	.	.	.	.
.	.	.	.	.	16ee\LL	.	16ccc#\LL	.	.	.	.	.	.	.	.	.	.	.	.
.	.	.	.	.	16gg\JJ	.	16bb\JJ	.	.	.	.	.	.	.	.	.	.	.	.
=38	=38	=38	=38	=38	=38	=38	=38	=38	=38	=38	=38	=38	=38	=38	=38	=38	=38	=38	=38
8r	.	8r	.	.	4ff#\	.	4aa\	.	.	.	.	.	.	.	.	.	.	.	.
8d\L	.	8d\L	.	.	.	.	.	.	.	.	.	.	.	.	.	.	.	.	.
8B\	.	8B\	6	.	4gg\	.	4bb\	.	.	.	.	.	.	.	.	.	.	.	.
8G\J	.	8G\J	.	.	.	.	.	.	.	.	.	.	.	.	.	.	.	.	.
!LO:LB:g=original	!	!	!	!	!	!	!	!	!	!	!	!	!	!	!	!	!	!	!
=39	=39	=39	=39	=39	=39	=39	=39	=39	=39	=39	=39	=39	=39	=39	=39	=39	=39	=39	=39
!LO:TX:t=P:problem=mixed beam	!	!	!	!	!	!	!	!	!	!	!	!	!	!	!	!	!	!	!
8d\L	.	8d\L	.	.	16ff#\LL	.	16aa\LL	.	.	.	.	.	.	.	.	.	.	.	.
.	.	.	.	.	16dd\	.	16dd\	.	.	.	.	.	.	.	.	.	.	.	.
8D/J	.	8D\J	.	.	16cc#\	.	16cc#\	.	.	.	.	.	.	.	.	.	.	.	.
.	.	.	.	.	16b\JJ	.	16b\JJ	.	.	.	.	.	.	.	.	.	.	.	.
4r	.	4r	.	.	16a/LL	.	16a/LL	.	.	.	.	.	.	.	.	.	.	.	.
.	.	.	.	.	16g/	.	16g/	.	.	.	.	.	.	.	.	.	.	.	.
.	.	.	.	.	16f#/	.	16f#/	.	.	.	.	.	.	.	.	.	.	.	.
.	.	.	.	.	16e/JJ	.	16e/JJ	.	.	.	.	.	.	.	.	.	.	.	.
!	!	!LO:LB:g=original	!	!	!LO:LB:g=original	!	!	!	!	!	!	!	!	!	!	!	!	!	!
=40	=40	=40	=40	=40	=40	=40	=40	=40	=40	=40	=40	=40	=40	=40	=40	=40	=40	=40	=40
!LO:TX:a:t=4	!	!LO:TX:a:t=4.	!	!	!	!	!	!	!	!	!	!	!	!	!	!	!	!	!
0r	.	0r	.	.	4d/	.	4d/	.	0r	.	0r	.	0r	.	0r	.	4D/	4ff#\	4aa\
.	.	.	.	.	4G/	.	4G/	.	.	.	.	.	.	.	.	.	4D/	4gg\	4bb\
=41	=41	=41	=41	=41	=41	=41	=41	=41	=41	=41	=41	=41	=41	=41	=41	=41	=41	=41	=41
.	.	.	.	.	4d/	.	4d/	.	.	.	.	.	.	.	.	.	4D/	8ff#\	8aa\
.	.	.	.	.	.	.	.	.	.	.	.	.	.	.	.	.	.	4ff#\	4ddd\
.	.	.	.	.	4r	.	4r	.	.	.	.	.	.	.	.	.	4r	.	.
.	.	.	.	.	.	.	.	.	.	.	.	.	.	.	.	.	.	16ee\LL	16ccc#\LL
.	.	.	.	.	.	.	.	.	.	.	.	.	.	.	.	.	.	16gg\JJ	16bb\JJ
=42	=42	=42	=42	=42	=42	=42	=42	=42	=42	=42	=42	=42	=42	=42	=42	=42	=42	=42	=42
.	.	.	.	.	8r	.	8r	.	.	.	.	.	.	.	.	.	4D/	4ff#\	4aa\
.	.	.	.	.	8dd\L	.	8dd\L	.	.	.	.	.	.	.	.	.	.	.	.
.	.	.	.	.	8b\	.	8b\	.	.	.	.	.	.	.	.	.	4D/	4gg\	4bb\
.	.	.	.	.	8g\J	.	8g\J	.	.	.	.	.	.	.	.	.	.	.	.
!	!	!	!	!	!	!	!LO:LB:g=original	!	!	!	!	!	!	!	!	!	!	!	!
=43	=43	=43	=43	=43	=43	=43	=43	=43	=43	=43	=43	=43	=43	=43	=43	=43	=43	=43	=43
.	.	.	.	.	16d/LL	.	16d/LL	.	.	.	.	.	.	.	.	.	4D/	4ff#\	4aa\
.	.	.	.	.	16f#/	.	16a/	.	.	.	.	.	.	.	.	.	.	.	.
.	.	.	.	.	16g/	.	16b/	.	.	.	.	.	.	.	.	.	.	.	.
.	.	.	.	.	16a/JJ	.	16cc#/JJ	.	.	.	.	.	.	.	.	.	.	.	.
.	.	.	.	.	16b\LL	.	16dd\LL	.	.	.	.	.	.	.	.	.	4r	4r	4r
.	.	.	.	.	16cc#\	.	16ee\	.	.	.	.	.	.	.	.	.	.	.	.
.	.	.	.	.	16dd\	.	16ff#\	.	.	.	.	.	.	.	.	.	.	.	.
.	.	.	.	.	16ee\JJ	.	16gg\JJ	.	.	.	.	.	.	.	.	.	.	.	.
=44	=44	=44	=44	=44	=44	=44	=44	=44	=44	=44	=44	=44	=44	=44	=44	=44	=44	=44	=44
4d\	.	4d\	.	.	(32dd\LLL	.	(32ff#\LLL	.	0r	.	0r	.	0r	.	0r	.	4D/	8dd\L	8ff#\L
.	.	.	.	.	32ee\JJ	.	32gg\JJ	.	.	.	.	.	.	.	.	.	.	.	.
.	.	.	.	.	8.ff#\J)	.	8.aa\J)	.	.	.	.	.	.	.	.	.	.	.	.
.	.	.	.	.	.	.	.	.	.	.	.	.	.	.	.	.	.	8ff#\J	8aa\J
8r	.	8r	.	.	(32cc#\LLL	.	(32ee\LLL	.	.	.	.	.	.	.	.	.	8r	8a\L	8ee\L
.	.	.	.	.	32dd\JJ	.	32ff#\JJ	.	.	.	.	.	.	.	.	.	.	.	.
.	.	.	.	.	8.ee\J)	.	8.gg\J)	.	.	.	.	.	.	.	.	.	.	.	.
8A\	.	8A\	7	.	.	.	.	.	.	.	.	.	.	.	.	.	8AA/	8ee\J	8gg\J
=45	=45	=45	=45	=45	=45	=45	=45	=45	=45	=45	=45	=45	=45	=45	=45	=45	=45	=45	=45
!LO:TX:t=P:problem=mixed beam	!	!	!	!	!	!	!	!	!	!	!	!	!	!	!	!	!	!	!
8d\L	.	8d\L	.	.	16dd\LL	.	16ff#\LL	.	.	.	.	.	.	.	.	.	4D/	16dd\LL	16ff#\LL
.	.	.	.	.	16ff#\	.	16aa\	.	.	.	.	.	.	.	.	.	.	16ff#\	16aa\
8D/J	.	8D\J	.	.	16ee\	.	16gg\	.	.	.	.	.	.	.	.	.	.	16ee\	16gg\
.	.	.	.	.	16dd\JJ	.	16ff#\JJ	.	.	.	.	.	.	.	.	.	.	16dd\JJ	16ff#\JJ
8r	.	8r	.	.	16cc#\LL	.	16ee\LL	.	.	.	.	.	.	.	.	.	4AA/	16a\LL	16ee\LL
.	.	.	.	.	16ee\	.	16gg\	.	.	.	.	.	.	.	.	.	.	16ee\	16gg\
8A\	.	8A\	7	.	16dd\	.	16ff#\	.	.	.	.	.	.	.	.	.	.	16dd\	16ff#\
.	.	.	.	.	16cc#\JJ	.	16ee\JJ	.	.	.	.	.	.	.	.	.	.	16a\JJ	16ee\JJ
=46	=46	=46	=46	=46	=46	=46	=46	=46	=46	=46	=46	=46	=46	=46	=46	=46	=46	=46	=46
8D\L	.	8D\L	.	.	8.ddT\L	.	8.ff#t\L	.	.	.	.	.	.	.	.	.	8D/L	4dd\	4ff#\
8d\	.	8d\	.	.	.	.	.	.	.	.	.	.	.	.	.	.	8D/	.	.
.	.	.	.	.	32cc#\LL	.	32ee\LL	.	.	.	.	.	.	.	.	.	.	.	.
.	.	.	.	.	32dd\JJJ	.	32ff#\JJJ	.	.	.	.	.	.	.	.	.	.	.	.
8c#\	.	8c#\	6 5	.	8ee\L	.	8gg\L	.	.	.	.	.	.	.	.	.	8AA/	8ee\L	8gg\L
8d\J	.	8d\J	.	.	8dd\J	.	8ff#\J	.	.	.	.	.	.	.	.	.	8D/J	8dd\J	8ff#\J
=47	=47	=47	=47	=47	=47	=47	=47	=47	=47	=47	=47	=47	=47	=47	=47	=47	=47	=47	=47
.	.	.	.	.	8qqee/	.	8qqgg/	.	.	.	.	.	.	.	.	.	.	.	.
8A\L	.	8A\L	6 4	.	8dd\L	.	8ff#\L	.	.	.	.	.	.	.	.	.	8AA/L	8ff#\L	8ddd\L
8A\	.	8A\	5 3	.	8cc#\J	.	8ee\J	.	.	.	.	.	.	.	.	.	8AA/J	8ee\J	8ccc#\J
8B\	.	8B\	7	.	4r	.	8r	.	.	.	.	.	.	.	.	.	4r	4r	4r
8c#\J	.	8c#\J	6 5	.	.	.	8gg\|	.	.	.	.	.	.	.	.	.	.	.	.
=48	=48	=48	=48	=48	=48	=48	=48	=48	=48	=48	=48	=48	=48	=48	=48	=48	=48	=48	=48
8d\L	.	8d\L	.	.	8r	.	8ff#\L|	.	0r	.	0r	.	0r	.	0r	.	8r	8r	8r
8A\	.	8A\	7	.	8gg\|	.	8cc#\J|	.	.	.	.	.	.	.	.	.	8AA/L	16a/LL	16a/LL
.	.	.	.	.	.	.	.	.	.	.	.	.	.	.	.	.	.	16a/JJ	16a/JJ
!	!	!	!	!	!	!	!LO:TX:t=P:problem=mixed beam	!	!	!	!	!	!	!	!	!	!	!	!
8D\J	.	8D\J	.	.	8ff#\L|	.	8dd\L|	.	.	.	.	.	.	.	.	.	8AA/	8a/L	8a/L
!	!	!	!	!	!	!	!	!LO:DY:b:t=pia	!	!	!	!	!	!	!	!	!	!	!
8r	.	8r	.	.	(8cc#\J	.	(>8g/J	p	.	.	.	.	.	.	.	.	8AA/J	8a/J	8a/J
=49	=49	=49	=49	=49	=49	=49	=49	=49	=49	=49	=49	=49	=49	=49	=49	=49	=49	=49	=49
!	!	!	!	!	!LO:TX:t=P:problem=mixed beam	!	!	!	!	!	!	!	!	!	!	!	!	!	!
8r	.	8r	.	.	8dd\L)	.	8f#/L)	.	.	.	.	.	.	.	.	.	4D/	4a/	4a/
8AA/	.	8AA/	7	.	(8g/J	.	8c#/J	.	.	.	.	.	.	.	.	.	.	.	.
!LO:TX:t=P:problem=mixed beam	!	!LO:TX:t=P:problem=mixed beam	!	!	!	!	!	!	!	!	!	!	!	!	!	!	!	!	!
8DD/L	.	8DD/L	.	.	8f#/)	.	8d/L	.	.	.	.	.	.	.	.	.	4r	4r	4r
!	!	!	!	!	!	!	!	!LO:DY:b:t=for	!	!	!	!	!	!	!	!	!	!	!
8F#\J	.	8F#\J	6 n5	.	8r	.	8cccn\J|	f	.	.	.	.	.	.	.	.	.	.	.
!	!	!	!	!	!LO:LB:g=original	!	!	!	!	!	!	!	!	!	!	!	!	!	!LO:LB:g=original
=50	=50	=50	=50	=50	=50	=50	=50	=50	=50	=50	=50	=50	=50	=50	=50	=50	=50	=50	=50
8G\L	.	8G\L	.	.	8r	.	8bb\L|	.	.	.	.	.	.	.	.	.	8r	8r	8r
8D\	.	8D\	n7r	.	8cccn\|	.	8ff#\|	.	.	.	.	.	.	.	.	.	8D/L	16d/LL	16d/LL
.	.	.	.	.	.	.	.	.	.	.	.	.	.	.	.	.	.	16d/JJ	16d/JJ
8GG\J	.	8GG\J	.	.	8bb\L|	.	8gg\|	.	.	.	.	.	.	.	.	.	8D/	8d/L	8d/L
8r	.	8r	.	.	(8ff#\J	.	(8ccn\J	.	.	.	.	.	.	.	.	.	8D/J	8d/J	8d/J
=51	=51	=51	=51	=51	=51	=51	=51	=51	=51	=51	=51	=51	=51	=51	=51	=51	=51	=51	=51
!	!	!	!	!	!	!	!LO:TX:t=P:problem=mixed beam	!	!	!	!	!	!	!	!	!	!	!	!
8r	.	8r	.	.	8gg\L)	.	8b/L)	.	.	.	.	.	.	.	.	.	4D/	4d/	4d/
8D\L	.	8D\L	n7r	.	(8ccn\	.	(8f#/	.	.	.	.	.	.	.	.	.	.	.	.
8G\	.	8G\	.	.	8b\)	.	8g/)	.	.	.	.	.	.	.	.	.	4r	4r	4r
!	!	!	!	!	!	!	!	!LO:DY:b:t=for	!	!	!	!	!	!	!	!	!	!	!
8E\J	.	8E\J	.	.	8g\J|	.	8bb\J|	f	.	.	.	.	.	.	.	.	.	.	.
=52	=52	=52	=52	=52	=52	=52	=52	=52	=52	=52	=52	=52	=52	=52	=52	=52	=52	=52	=52
8A\L	.	8A\L	#	.	(4e/	.	(4cc#X\	.	0r	.	0r	.	0r	.	0r	.	8r	8r	8r
8G\	.	8G\	.	.	.	.	.	.	.	.	.	.	.	.	.	.	8AA/L	8a/L	8a/L
8F#\	.	8F#\	6	.	8f#/L)	.	8dd\L)	.	.	.	.	.	.	.	.	.	8D/J	8a/J	8a/J
8G\J	.	8G\J	.	.	16b/L	.	8bb\J	.	.	.	.	.	.	.	.	.	8r	8r	8r
.	.	.	.	.	16g/JJ	.	.	.	.	.	.	.	.	.	.	.	.	.	.
!	!	!	!	!	!	!	!LO:LB:g=original	!	!	!	!	!	!	!	!	!	!	!	!
=53	=53	=53	=53	=53	=53	=53	=53	=53	=53	=53	=53	=53	=53	=53	=53	=53	=53	=53	=53
8A\L	.	8A\L	.	.	(4e/	.	(4cc#\	.	.	.	.	.	.	.	.	.	8r	8r	8r
!	!	!	!	!	!	!	!	!	!	!	!	!	!	!	!	!	!	!	!LO:TX:t=P:problem=mixed beam
8G\	.	8G\	.	.	.	.	.	.	.	.	.	.	.	.	.	.	8AA/L	8a/L	8a/L
!	!	!	!	!	!LO:TX:t=P:problem=mixed beam	!	!	!	!	!	!	!	!	!	!	!	!	!	!
8F#\	.	8F#\	6	.	8f#/L)	.	8dd\L)	.	.	.	.	.	.	.	.	.	8D/	8a/	8a/
8G\J	.	8G\J	.	.	8ee\J|	.	8ff#\J|	.	.	.	.	.	.	.	.	.	8D/J	8ee/J	8gg\J
!	!	!	!	!	!	!	!	!	!	!	!	!	!	!	!	!	!	!LO:LB:g=original	!
=54	=54	=54	=54	=54	=54	=54	=54	=54	=54	=54	=54	=54	=54	=54	=54	=54	=54	=54	=54
!LO:TX:t=P:problem=mixed beam	!	!LO:TX:t=P:problem=mixed beam	!	!	!	!	!	!	!	!	!	!	!	!	!	!	!	!LO:TX:t=P:problem=mixed beam	!
8A\L	.	8A\L	6 4	.	4dd\	.	4ff#\	.	.	.	.	.	.	.	.	.	8D/L	8dd\L	4ff#\
8G\	.	8G\	.	.	.	.	.	.	.	.	.	.	.	.	.	.	8D/	16d/L	.
.	.	.	.	.	.	.	.	.	.	.	.	.	.	.	.	.	.	16f#/JJ	.
8A\	.	8A\	5 3	.	4cc#t\	.	4eeT\	.	.	.	.	.	.	.	.	.	8AA/	8a/L	4eeT\
8AA/J	.	8AA/J	.	.	.	.	.	.	.	.	.	.	.	.	.	.	8AA/J	8a/J	.
!LO:LB:g=original	!	!	!	!	!	!	!	!	!	!	!	!	!	!	!	!	!LO:LB:g=original	!	!
=55	=55	=55	=55	=55	=55	=55	=55	=55	=55	=55	=55	=55	=55	=55	=55	=55	=55	=55	=55
!	!	!	!	!	!	!LO:DY:b:t=pia.	!	!	!	!	!	!	!	!	!	!	!	!	!LO:TX:t=P:problem=mixed beam
8D\L	.	8D\L	.	.	8f#/L	p	4dd\	.	.	.	.	.	.	.	.	.	8D/L	8f#/L	8dd\L
8E\	.	8E\	.	.	8g/	.	.	.	.	.	.	.	.	.	.	.	8D/J	16d/L	16d/L
.	.	.	.	.	.	.	.	.	.	.	.	.	.	.	.	.	.	16d/JJ	16d/JJ
8F#\	.	8F#\	6	.	8a/	.	8r	.	.	.	.	.	.	.	.	.	4D/	4d/	4d/
!	!	!	!	!LO:DY:b:t=pia	!	!	!	!LO:DY:b:t=po.	!	!	!	!	!	!	!	!	!	!	!
8G\J	.	8G\J	.	p	8b/J	.	8b/	p	.	.	.	.	.	.	.	.	.	.	.
!	!	!LO:LB:g=original	!	!	!	!	!	!	!	!	!	!	!	!	!	!	!	!	!
=56	=56	=56	=56	=56	=56	=56	=56	=56	=56	=56	=56	=56	=56	=56	=56	=56	=56	=56	=56
8A\L	.	8A\L	.	.	(4e/	.	(4c#/	.	0r	.	0r	.	0r	.	0r	.	2r	2r	2r
8G\	.	8G\	.	.	.	.	.	.	.	.	.	.	.	.	.	.	.	.	.
8F#\	.	8F#\	6	.	8f#/L)	.	8d/L)	.	.	.	.	.	.	.	.	.	.	.	.
8G\J	.	8G\J	.	.	16b/L	.	8b/J|	.	.	.	.	.	.	.	.	.	.	.	.
.	.	.	.	.	16g/JJ	.	.	.	.	.	.	.	.	.	.	.	.	.	.
=57	=57	=57	=57	=57	=57	=57	=57	=57	=57	=57	=57	=57	=57	=57	=57	=57	=57	=57	=57
!	!	!	!	!	!	!LO:DY:b:t=for	!	!	!	!	!	!	!	!	!	!	!	!	!
8A\L	.	8A\L	.	.	(4e/	f	(4c#/	.	.	.	.	.	.	.	.	.	4r	4r	4r
8G\	.	8G\	.	.	.	.	.	.	.	.	.	.	.	.	.	.	.	.	.
8F#\	.	8F#\	6	.	8f#/L)	.	8d/L)	.	.	.	.	.	.	.	.	.	8r	8r	8r
!	!	!	!	!	!	!	!	!LO:DY:b:t=for	!	!	!	!	!	!	!	!	!	!	!
8G\J	.	8G\J	.	.	8e/J|	.	8g/J|	f	.	.	.	.	.	.	.	.	8D/	8ee\	8gg\
=58	=58	=58	=58	=58	=58	=58	=58	=58	=58	=58	=58	=58	=58	=58	=58	=58	=58	=58	=58
!LO:TX:t=P:problem=mixed beam	!	!LO:TX:t=P:problem=mixed beam	!	!	!	!	!	!	!	!	!	!	!	!	!	!	!	!	!
8A\L	.	8A\L	6 4	.	4d/	.	4f#/	.	.	.	.	.	.	.	.	.	4D/	4dd\	4ff#\
8G\	.	8G\	.	.	.	.	.	.	.	.	.	.	.	.	.	.	.	.	.
8A\	.	8A\	7 3	.	4c#t/	.	4eT/	.	.	.	.	.	.	.	.	.	4AA/	4a/	4eeT\
8AA/J	.	8AA/J	.	.	.	.	.	.	.	.	.	.	.	.	.	.	.	.	.
=59	=59	=59	=59	=59	=59	=59	=59	=59	=59	=59	=59	=59	=59	=59	=59	=59	=59	=59	=59
16D\LL|	.	16D\LL|	.	.	4d/	.	4d/	.	.	.	.	.	.	.	.	.	4D/	4f#/	4dd\
16G\|	.	16G\|	.	.	.	.	.	.	.	.	.	.	.	.	.	.	.	.	.
16F#\|	.	16F#\|	.	.	.	.	.	.	.	.	.	.	.	.	.	.	.	.	.
16B\JJ|	.	16B\JJ|	.	.	.	.	.	.	.	.	.	.	.	.	.	.	.	.	.
16A\LL|	.	16A\LL|	.	.	4r	.	4r	.	.	.	.	.	.	.	.	.	4r	4r	4r
16G\|	.	16G\|	.	.	.	.	.	.	.	.	.	.	.	.	.	.	.	.	.
16F#\|	.	16F#\|	.	.	.	.	.	.	.	.	.	.	.	.	.	.	.	.	.
16E\JJ|	.	16E\JJ|	.	.	.	.	.	.	.	.	.	.	.	.	.	.	.	.	.
=60	=60	=60	=60	=60	=60	=60	=60	=60	=60	=60	=60	=60	=60	=60	=60	=60	=60	=60	=60
!	!LO:DY:b:t=piano	!	!	!LO:DY:b:t=piano	!LO:TX:a:t=3	!	!LO:TX:a:t=3.	!	!	!	!	!	!	!	!	!	!LO:TX:a:t=3	!	!
4D/	p	4D/	.	p	1r	.	1r	.	0r	.	0r	.	4f#\	Chri-	(4a\	Chris-	1r	1r	1r
4GG/	.	4GG/	.	.	.	.	.	.	.	.	.	.	4g\	.	4b\)	.	.	.	.
=61	=61	=61	=61	=61	=61	=61	=61	=61	=61	=61	=61	=61	=61	=61	=61	=61	=61	=61	=61
4DD/	.	4DD/	.	.	.	.	.	.	.	.	.	.	8f#\	-te	8a\	-te	.	.	.
.	.	.	.	.	.	.	.	.	.	.	.	.	4b\	e-	4dd\	e-	.	.	.
4r	.	4r	.	.	.	.	.	.	.	.	.	.	.	.	.	.	.	.	.
.	.	.	.	.	.	.	.	.	.	.	.	.	16a\LL	.	16cc#\LL	.	.	.	.
.	.	.	.	.	.	.	.	.	.	.	.	.	16g\JJ	.	16b\JJ	.	.	.	.
!	!	!	!	!	!	!	!	!	!	!	!	!	!LO:LB:g=original	!	!	!	!	!	!
=62	=62	=62	=62	=62	=62	=62	=62	=62	=62	=62	=62	=62	=62	=62	=62	=62	=62	=62	=62
!LO:TX:t=P:problem=brakujące 4 takty	!	!	!	!	!	!	!	!	!	!	!	!	!	!	!	!	!	!	!
2ryy	.	8r	.	.	2r	.	2r	.	.	.	.	.	8.f#\L	.	8.aT\L	.	2r	2r	2r
.	.	8d\L	.	.	.	.	.	.	.	.	.	.	.	.	.	.	.	.	.
.	.	.	.	.	.	.	.	.	.	.	.	.	32e\LL	.	32g\LL	.	.	.	.
.	.	.	.	.	.	.	.	.	.	.	.	.	32f#\JJJ	.	32a\JJJ	.	.	.	.
.	.	8B\	6	.	.	.	.	.	.	.	.	.	8g\	.	8b\	.	.	.	.
.	.	8G\J	.	.	.	.	.	.	.	.	.	.	8g\	.	8b\	.	.	.	.
!	!	!	!	!	!	!	!	!	!	!	!	!	!	!	!LO:LB:g=original	!	!	!	!
=63	=63	=63	=63	=63	=63	=63	=63	=63	=63	=63	=63	=63	=63	=63	=63	=63	=63	=63	=63
.	.	.	.	.	.	.	.	.	.	.	.	.	.	.	8qqcc#/	.	.	.	.
2ryy	.	8D\L	6 4	.	8r	.	8r	.	.	.	.	.	8g\	-lei-	8b\	-lei-	8r	8r	8r
!	!	!	!	!LO:DY:b:t=for	!	!	!	!	!	!	!	!	!	!	!	!	!	!	!
.	.	8d\	5 3	f	16dd\LL	.	16dd\LL	.	.	.	.	.	8f#\	-son	8a\	-son	8D/L	8dd/L	8dd/L
.	.	.	.	.	16ff#\JJ	.	16ff#\JJ	.	.	.	.	.	.	.	.	.	.	.	.
.	.	8A\|	.	.	16a\LL	.	16a\LL	.	.	.	.	.	4r	.	4r	.	8D/	8a/	8a/
.	.	.	.	.	16dd\	.	16dd\	.	.	.	.	.	.	.	.	.	.	.	.
.	.	8F#\J|	.	.	16f#\	.	16f#\	.	.	.	.	.	.	.	.	.	8D/J	8f#/J	8f#/J
.	.	.	.	.	16a\JJ	.	16a\JJ	.	.	.	.	.	.	.	.	.	.	.	.
!	!	!	!	!	!LO:LB:g=original	!	!	!	!	!	!LO:LB:g=original	!	!	!	!	!	!	!	!
=64	=64	=64	=64	=64	=64	=64	=64	=64	=64	=64	=64	=64	=64	=64	=64	=64	=64	=64	=64
!	!	!	!	!	!	!	!	!	!	!	!	!	!	!	!LO:TX:a:t=3.	!	!	!	!
2ryy	.	4D/	.	.	4ff# 4a 4d/	.	4ff# 4a 4d/	.	4F#\	Chri-	4A\	Chri-	0r	.	1r	.	4D/	4d/	4f#/
!	!	!	!	!LO:DY:b:t=pia.	!	!	!	!	!	!	!	!	!	!	!	!	!	!	!
.	.	4GG/	.	p	4r	.	4r	.	4G\	-ſte	4B\	-ſte	.	.	.	.	4r	4r	4r
=65	=65	=65	=65	=65	=65	=65	=65	=65	=65	=65	=65	=65	=65	=65	=65	=65	=65	=65	=65
!	!	!	!	!	!LO:TX:a:t=6.	!	!LO:TX:a:t=6.	!	!	!	!	!	!	!	!	!	!LO:TX:a:t=6	!	!
2ryy	.	4DD/	.	.	0r	.	0r	.	8F#\	.	8A\	e-	.	.	.	.	0r	0r	0r
.	.	.	.	.	.	.	.	.	4B\	e-	4d\	.	.	.	.	.	.	.	.
.	.	4r	.	.	.	.	.	.	.	.	.	.	.	.	.	.	.	.	.
.	.	.	.	.	.	.	.	.	16A\LL	.	16c#\LL	-lei-	.	.	.	.	.	.	.
.	.	.	.	.	.	.	.	.	16G\JJ	.	16B\JJ	.	.	.	.	.	.	.	.
=66	=66	=66	=66	=66	=66	=66	=66	=66	=66	=66	=66	=66	=66	=66	=66	=66	=66	=66	=66
4D/	.	4D/	.	.	.	.	.	.	8F#\L	.	8A/L	.	.	.	2r	.	.	.	.
.	.	.	.	.	.	.	.	.	16E\L	.	16G/L	.	.	.	.	.	.	.	.
*	*	*	*	*	*	*	*	*	*custos:E	*	*	*	*	*	*	*	*	*	*
.	.	.	.	.	.	.	.	.	16D\JJ	.	16F#/JJ	.	.	.	.	.	.	.	.
!LO:TX:t=P:problem=mixed beam	!	!LO:TX:t=P:problem=mixed beam	!	!	!	!	!	!	!LO:LB:g=original	!	!	!	!	!	!	!	!	!	!
8A\L	.	8A\L	7	.	.	.	.	.	8E\	.	8G/	.	.	.	.	.	.	.	.
8AA/J	.	8AA/J	.	.	.	.	.	.	8E\	.	8G/	.	.	.	.	.	.	.	.
=67	=67	=67	=67	=67	=67	=67	=67	=67	=67	=67	=67	=67	=67	=67	=67	=67	=67	=67	=67
!LO:TX:t=P:problem=mixed beam	!	!LO:TX:t=P:problem=mixed beam	!	!	!	!	!	!	!	!	!	!	!	!	!	!	!	!	!
.	.	.	.	.	.	.	.	.	8qqF#/	.	8qqA/	.	.	.	.	.	.	.	.
8DD/L	.	8DD/L	4 9	.	.	.	.	.	8E\	-lei-	8G/	.	.	.	4r	.	.	.	.
8D\	.	8D\	3 8	.	.	.	.	.	8D/	-son	8F#/	-son	.	.	.	.	.	.	.
8F#\	.	8F#\	6	.	.	.	.	.	4r	.	4r	.	.	.	8r	.	.	.	.
8D\J	.	8D\J	.	.	.	.	.	.	.	.	.	.	.	.	8ff#\	e-	.	.	.
=68	=68	=68	=68	=68	=68	=68	=68	=68	=68	=68	=68	=68	=68	=68	=68	=68	=68	=68	=68
!	!	!	!	!	!	!	!	!	!LO:TX:a:t=3.	!	!	!	!	!	!	!	!	!	!
8E\L	.	8E\L	#	.	.	.	.	.	1r	.	1r	.	2r	.	(4g#X/	.	.	.	.
8D\	.	8D\	.	.	.	.	.	.	.	.	.	.	.	.	.	.	.	.	.
8C#\	.	8C#\	6	.	.	.	.	.	.	.	.	.	.	.	8a\L)	.	.	.	.
8D\J	.	8D\J	.	.	.	.	.	.	.	.	.	.	.	.	8ff#\J|	.	.	.	.
!	!	!LO:LB:g=original	!	!	!	!	!	!	!	!	!	!	!	!	!	!	!	!	!
=69	=69	=69	=69	=69	=69	=69	=69	=69	=69	=69	=69	=69	=69	=69	=69	=69	=69	=69	=69
8E\L	.	8E\L	#	.	1r	.	1r	.	.	.	.	.	4r	.	(4g#X/	.	1r	1r	1r
8D\	.	8D\	.	.	.	.	.	.	.	.	.	.	.	.	.	.	.	.	.
8C#\	.	8C#\	6	.	.	.	.	.	.	.	.	.	8r	.	8a\L)	.	.	.	.
8D\J	.	8D\J	6	.	.	.	.	.	.	.	.	.	8b\	e-	8dd\J|	.	.	.	.
=70	=70	=70	=70	=70	=70	=70	=70	=70	=70	=70	=70	=70	=70	=70	=70	=70	=70	=70	=70
!LO:TX:t=P:problem=mixed beam	!	!LO:TX:t=P:problem=mixed beam	!	!	!	!	!	!	!	!	!	!	!	!	!	!	!	!	!
8E\L	.	8E\L	6 4	.	.	.	.	.	2r	.	2r	.	4a\	-lei-	(4cc#\	-lei-	.	.	.
8D\	.	8D\	.	.	.	.	.	.	.	.	.	.	.	.	.	.	.	.	.
8E\	.	8E\	5 #	.	.	.	.	.	.	.	.	.	4g#Xt\	.	4bT\)	.	.	.	.
8EE/J	.	8EE/J	.	.	.	.	.	.	.	.	.	.	.	.	.	.	.	.	.
=71	=71	=71	=71	=71	=71	=71	=71	=71	=71	=71	=71	=71	=71	=71	=71	=71	=71	=71	=71
*	*	*	*	*	*^	*	*	*	*	*	*	*	*	*	*	*	*	*	*
!LO:TX:b:i:t=Tasto solo.	!	!LO:TX:a:t=Tutti	!	!	!	!	!	!	!	!	!	!	!	!	!	!	!	!	!	!
[>2AA/	.	[2AA/	.	.	[2ee/	[2cc#\	.	[2ccc# [2a/	.	4A\	e-	4A/	e-	4a\	-son	4a\	-son	4AA/	2ccc# [>2ee\	[2ccc#\
.	.	.	.	.	.	.	.	.	.	8B\L	.	8B/L	-lei-	8b\L	e-	8b\L	e-	4AA/	.	.
.	.	.	.	.	.	.	.	.	.	8G#X\J	.	8G#X/J	.	8g#X\J	.	8g#X\J	.	.	.	.
!LO:LB:g=original	!	!	!	!	!	!	!	!	!	!	!	!	!	!	!	!	!	!	!	!
=72	=72	=72	=72	=72	=72	=72	=72	=72	=72	=72	=72	=72	=72	=72	=72	=72	=72	=72	=72	=72
!	!	!LO:TX:b:t=Tasto solo.	!	!	!	!	!	!	!	!	!	!	!	!	!	!	!	!	!	!
2AA/_	.	2AA/_	.	.	2ee/_	2cc#\_	.	2ccc#_ 2a/_	.	4A\	.	4A/	.	4a\	.	4a\	.	4AA/	2ee\]	2ccc#\]
.	.	.	.	.	.	.	.	.	.	8c#\L	.	8c#\L	.	8cc#\L	.	8cc#\L	.	4AA/	.	.
.	.	.	.	.	.	.	.	.	.	8G#X\J	.	8G#X\J	.	8g#X\J	.	8g#X\J	.	.	.	.
=73	=73	=73	=73	=73	=73	=73	=73	=73	=73	=73	=73	=73	=73	=73	=73	=73	=73	=73	=73	=73
2AA/_	.	2AA/_	.	.	2ee/_	2cc#\_	.	2ccc#_ 2a/_	.	4A\	.	4A/	.	4a\	.	4a\	.	4AA/	4a/	4ee\
.	.	.	.	.	.	.	.	.	.	8e\L	.	8e\L	.	8ee\L	.	8ee\L	.	4AA/	8.a/L	8.ee\L
.	.	.	.	.	.	.	.	.	.	8G#X\J	.	8G#X\J	.	8g#X\J	.	8g#X\J	.	.	.	.
.	.	.	.	.	.	.	.	.	.	.	.	.	.	.	.	.	.	.	16a/Jk	16ee\Jk
!	!	!	!	!	!	!	!	!	!	!	!	!	!	!	!	!	!	!	!	!LO:LB:g=original
=74	=74	=74	=74	=74	=74	=74	=74	=74	=74	=74	=74	=74	=74	=74	=74	=74	=74	=74	=74	=74
2AA/_	.	2AA/_	.	.	2ee/_	2cc#\_	.	2ccc#_ 2a/_	.	4A\	-lei-	4A/	.	4a\	-lei-	4a\	-lei-	4AA/	4a/	4ee\
.	.	.	.	.	.	.	.	.	.	4E\	-son	4E/	-son	4e\	-son	4e/	-son	4r	4r	4r
!	!	!	!	!	!	!	!	!	!	!	!	!LO:LB:g=original	!	!	!	!	!	!	!	!
=75	=75	=75	=75	=75	=75	=75	=75	=75	=75	=75	=75	=75	=75	=75	=75	=75	=75	=75	=75	=75
2AA/_	.	2AA/_	.	.	2ee/_	2cc#\_	.	2ccc#_ 2a/_	.	4A\	e-	4A/	e-	4a\	e-	4a\	e-	4AA/	[2ee\	[2ccc#\
.	.	.	.	.	.	.	.	.	.	8B\L	.	8B/L	.	8b\L	.	8b\L	.	4AA/	.	.
.	.	.	.	.	.	.	.	.	.	8G#X\J	.	8G#X/J	.	8g#X\J	.	8g#X\J	.	.	.	.
!	!	!	!	!	!	!	!	!LO:LB:g=original	!	!	!	!	!	!	!	!LO:LB:g=original	!	!	!	!
=76	=76	=76	=76	=76	=76	=76	=76	=76	=76	=76	=76	=76	=76	=76	=76	=76	=76	=76	=76	=76
2AA/_	.	2AA/_	.	.	2ee/_	2cc#\_	.	2ccc#_ 2a/_	.	4A\	.	4A/	.	4a\	.	4a\	.	4AA/	2ee\]	2ccc#\]
.	.	.	.	.	.	.	.	.	.	8c#\L	.	8c#\L	.	8cc#\L	.	8cc#\L	.	4AA/	.	.
.	.	.	.	.	.	.	.	.	.	8G#X\J	.	8G#X\J	.	8g#X\J	.	8g#X\J	.	.	.	.
!	!	!	!	!	!	!	!	!	!	!	!	!	!	!LO:LB:g=original	!	!	!	!	!	!
=77	=77	=77	=77	=77	=77	=77	=77	=77	=77	=77	=77	=77	=77	=77	=77	=77	=77	=77	=77	=77
2AA/]	.	2AA/]	.	.	2ee/]	2cc#\]	.	2ccc#] 2a/]	.	4A\	.	4A/	.	4a\	.	4a\	.	4AA/	4a/	4ee\
.	.	.	.	.	.	.	.	.	.	8e\L	-lei-	8e\L	-lei-	8ee\L	-lei-	8ee\L	-lei-	4AA/	8.a/L	8.ee\L
.	.	.	.	.	.	.	.	.	.	8G#X\J	.	8G#X\J	.	8g#X\J	.	8g#X\J	.	.	.	.
.	.	.	.	.	.	.	.	.	.	.	.	.	.	.	.	.	.	.	16a/Jk	16ee\Jk
=78	=78	=78	=78	=78	=78	=78	=78	=78	=78	=78	=78	=78	=78	=78	=78	=78	=78	=78	=78	=78
!LO:TX:t=P:problem=mixed beam	!	!LO:TX:t=P:problem=mixed beam	!	!	!	!	!	!	!	!	!	!	!	!	!	!	!	!	!	!
.	.	.	.	.	.	.	.	.	.	8qqG/	.	8qqG/	.	8qqg/	.	8qqg/	.	.	.	.
8AA/L	.	8AA/L	.	.	4ee/	4cc#\	.	4ccc# 4a/	.	4A\	-son	4A/	-son	4a\	-son	4a\	-son	4AA/	4a/	4ee\
8A\	.	8A\|	.	.	.	.	.	.	.	.	.	.	.	.	.	.	.	.	.	.
8Gn\	.	8Gn\|	.	.	4r	4ryy	.	4r	.	4r	.	4r	.	4r	.	4r	.	4r	4r	4r
8E\J	.	8E\J|	.	.	.	.	.	.	.	.	.	.	.	.	.	.	.	.	.	.
*	*	*	*	*	*v	*v	*	*	*	*	*	*	*	*	*	*	*	*	*	*
=79	=79	=79	=79	=79	=79	=79	=79	=79	=79	=79	=79	=79	=79	=79	=79	=79	=79	=79	=79
!	!	!	!	!	!LO:TX:a:t=1.	!	!	!	!	!	!	!	!	!	!	!	!	!	!
8F#\L	.	8F#\L	6	.	2r	.	16aa\LL|	.	4F#\	Chri-	4d\	Chri-	4a\	Chri-	4r	.	8r	8r	8r
.	.	.	.	.	.	.	(16ff#\	.	.	.	.	.	.	.	.	.	.	.	.
8F#\	.	8F#\	.	.	.	.	16ee\	.	.	.	.	.	.	.	.	.	8D/L	8dd\L	8ff#\L
.	.	.	.	.	.	.	16dd\JJ)	.	.	.	.	.	.	.	.	.	.	.	.
8F#\	.	8F#\	.	.	.	.	16aa\LL|	.	8F#\	-ſte	8d\	-ſte	8a\	-ſte	[4aa\	e-	8D/	8ff#\	8aa\
.	.	.	.	.	.	.	(16ff#\	.	.	.	.	.	.	.	.	.	.	.	.
8F#\J	.	8F#\J	.	.	.	.	16ee\	.	8F#\	e-	8d\	e-	8a\	e-	.	.	8D/J	8dd\J	8ff#\J
.	.	.	.	.	.	.	16dd\JJ)	.	.	.	.	.	.	.	.	.	.	.	.
!	!	!	!	!	!	!	!	!	!LO:LB:g=original	!	!	!	!	!	!	!	!	!	!
=80	=80	=80	=80	=80	=80	=80	=80	=80	=80	=80	=80	=80	=80	=80	=80	=80	=80	=80	=80
8G\L	.	8G\L	9	.	16dd\LL|	.	16bb\LL	.	4G\	-lei-	4d\	-lei-	[2b\	-lei-	8aa\L]	.	4D/	[2gg\	[2bb\
.	.	.	.	.	(16b\	.	16gg\	.	.	.	.	.	.	.	.	.	.	.	.
8G\	.	8G\	.	.	16a\	.	16aa\	.	.	.	.	.	.	.	8b\J	.	.	.	.
.	.	.	.	.	16g\JJ)	.	16bb\JJ	.	.	.	.	.	.	.	.	.	.	.	.
8G\	.	8G\	8	.	16dd\LL|	.	16g\LL	.	4G\	-son	4d\	-son	.	.	8dd\L	.	4r	.	.
.	.	.	.	.	(16b\	.	16gg\	.	.	.	.	.	.	.	.	.	.	.	.
8G\J	.	8G\J	.	.	16a\	.	16aa\	.	.	.	.	.	.	.	8gg\J	.	.	.	.
.	.	.	.	.	16g\JJ)	.	16bb\JJ	.	.	.	.	.	.	.	.	.	.	.	.
!	!	!	!	!	!	!	!	!	!	!	!	!	!	!	!	!	!	!LO:LB:g=original	!
=81	=81	=81	=81	=81	=81	=81	=81	=81	=81	=81	=81	=81	=81	=81	=81	=81	=81	=81	=81
!	!	!	!	!	!	!	!	!	!	!	!	!	!LO:TX:t=P:problem=mixed beam	!	!	!	!LO:TX:a:t=2	!	!
8E\L	.	8E\L	6 5	.	16cc#\LL	.	16bb\LL|	.	2E\	e-	[2c#\	e-	8b\L]	.	[2gg\	.	1r	2gg\]	2bb\]
.	.	.	.	.	16ee\	.	(16gg\	.	.	.	.	.	.	.	.	.	.	.	.
8E\	.	8E\	.	.	16dd\	.	16ff#\	.	.	.	.	.	8c#/J	.	.	.	.	.	.
.	.	.	.	.	16cc#\JJ	.	16ee\JJ)	.	.	.	.	.	.	.	.	.	.	.	.
!	!	!	!	!	!LO:TX:t=P:problem=mixed beam	!	!	!	!	!	!	!	!	!	!	!	!	!	!
8E\	.	8E\	.	.	16c#/LL	.	16bb\LL|	.	.	.	.	.	8e\L	.	.	.	.	.	.
.	.	.	.	.	16ee\	.	(16gg\	.	.	.	.	.	.	.	.	.	.	.	.
8E\J	.	8E\J	.	.	16dd\	.	16ff#\	.	.	.	.	.	8g\J	.	.	.	.	.	.
.	.	.	.	.	16cc#\JJ	.	16ee\JJ)	.	.	.	.	.	.	.	.	.	.	.	.
=82	=82	=82	=82	=82	=82	=82	=82	=82	=82	=82	=82	=82	=82	=82	=82	=82	=82	=82	=82
8F#\L	.	8F#\L	9	.	16cc#\LL|	.	16aa\LL	.	2F#\	.	2c#\]	.	[2a\	.	8gg\L]	.	.	[2ff#\	[2aa\
.	.	.	.	.	(16a\	.	16ff#\	.	.	.	.	.	.	.	.	.	.	.	.
8F#\	.	8F#\	.	.	16g\	.	16gg\	.	.	.	.	.	.	.	8a\J	.	.	.	.
.	.	.	.	.	16f#\JJ)	.	16aa\JJ	.	.	.	.	.	.	.	.	.	.	.	.
8F#\	.	8F#\	8	.	16cc#\LL|	.	16f#\LL	.	.	.	.	.	.	.	8cc#\L	.	.	.	.
.	.	.	.	.	(16a\	.	16ff#\	.	.	.	.	.	.	.	.	.	.	.	.
8F#\J	.	8F#\J	.	.	16g\	.	16gg\	.	.	.	.	.	.	.	8ff#\J	.	.	.	.
.	.	.	.	.	16f#\JJ)	.	16aa\JJ	.	.	.	.	.	.	.	.	.	.	.	.
!	!	!	!	!	!LO:LB:g=original	!	!	!	!	!	!	!	!	!	!	!	!LO:LB:g=original	!	!
=83	=83	=83	=83	=83	=83	=83	=83	=83	=83	=83	=83	=83	=83	=83	=83	=83	=83	=83	=83
!	!	!	!	!	!	!	!	!	!	!	!	!	!LO:TX:t=P:problem=mixed beam	!	!	!	!	!	!
8D\L	.	8D\L	6 5	.	16b\LL	.	16aa\LL|	.	2D/	.	[2B\	.	8a\L]	.	[2ff#\	.	8r	2ff#\]	2aa\]
.	.	.	.	.	16dd\	.	(16ff#\	.	.	.	.	.	.	.	.	.	.	.	.
8D\	.	8D\	.	.	16cc#\	.	16ee\	.	.	.	.	.	8B/J	.	.	.	8D/L	.	.
.	.	.	.	.	16b\JJ	.	16dd\JJ)	.	.	.	.	.	.	.	.	.	.	.	.
!	!	!	!	!	!LO:TX:t=P:problem=mixed beam	!	!	!	!	!	!	!	!	!	!	!	!	!	!
8D\	.	8D\	.	.	16B/LL	.	16aa\LL|	.	.	.	.	.	8d\L	.	.	.	8D/	.	.
.	.	.	.	.	16dd\	.	(16ff#\	.	.	.	.	.	.	.	.	.	.	.	.
8D\J	.	8D\J	.	.	16cc#\	.	16ee\	.	.	.	.	.	8f#\J	.	.	.	8D/J	.	.
.	.	.	.	.	16b\JJ	.	16dd\JJ)	.	.	.	.	.	.	.	.	.	.	.	.
=84	=84	=84	=84	=84	=84	=84	=84	=84	=84	=84	=84	=84	=84	=84	=84	=84	=84	=84	=84
8E\L	.	8E\L	9	.	16b/LL|	.	16gg\LL	.	2E\	.	2B\]	.	[2g\	.	8ff#\L]	.	8r	[2ee\	[2gg\
.	.	.	.	.	(16g/	.	16ee\	.	.	.	.	.	.	.	.	.	.	.	.
8E\	.	8E\	.	.	16f#/	.	16ff#\	.	.	.	.	.	.	.	8g\J	.	8AA/L	.	.
.	.	.	.	.	16e/JJ)	.	16gg\JJ	.	.	.	.	.	.	.	.	.	.	.	.
8E\	.	8E\	8	.	16b/LL|	.	16e\LL	.	.	.	.	.	.	.	8b\L	.	8AA/	.	.
.	.	.	.	.	(16g/	.	16ee\	.	.	.	.	.	.	.	.	.	.	.	.
8E\J	.	8E\J	.	.	16f#/	.	16ff#\	.	.	.	.	.	.	.	8ee\J	.	8AA/J	.	.
.	.	.	.	.	16e/JJ)	.	16gg\JJ	.	.	.	.	.	.	.	.	.	.	.	.
!	!	!LO:LB:g=original	!	!	!	!	!LO:LB:g=original	!	!	!	!	!	!	!	!	!	!	!	!
=85	=85	=85	=85	=85	=85	=85	=85	=85	=85	=85	=85	=85	=85	=85	=85	=85	=85	=85	=85
!	!	!	!	!	!	!	!	!	!	!	!	!	!LO:TX:t=P:problem=mixed beam	!	!	!	!	!	!
8C#/L	.	8C#/L	6 5	.	16a\LL	.	16gg\LL|	.	2C#/	.	2A/	.	8g\L]	.	[2ee\	.	8AA/L	2ee\]	2gg\]
.	.	.	.	.	16cc#\	.	(16ee\	.	.	.	.	.	.	.	.	.	.	.	.
8C#/	.	8C#/	.	.	16b\	.	16dd\	.	.	.	.	.	8A/J	.	.	.	8AA/	.	.
.	.	.	.	.	16a\JJ	.	16cc#\JJ)	.	.	.	.	.	.	.	.	.	.	.	.
!	!	!	!	!	!LO:TX:t=P:problem=mixed beam	!	!	!	!	!	!	!	!	!	!	!	!	!	!
8C#/	.	8C#/	.	.	16A/LL	.	16gg\LL|	.	.	.	.	.	8c#\L	.	.	.	8AA/	.	.
.	.	.	.	.	16cc#\	.	(16ee\	.	.	.	.	.	.	.	.	.	.	.	.
8C#/J	.	8C#/J	.	.	16b\	.	16dd\	.	.	.	.	.	8e\J	.	.	.	8AA/J	.	.
.	.	.	.	.	16a\JJ	.	16cc#\JJ)	.	.	.	.	.	.	.	.	.	.	.	.
=86	=86	=86	=86	=86	=86	=86	=86	=86	=86	=86	=86	=86	=86	=86	=86	=86	=86	=86	=86
!	!	!	!	!	!	!	!	!	!	!	!	!	!	!	!LO:TX:t=P:problem=mixed beam	!	!	!	!
8D/L	.	8D/L	9	.	16a/LL|	.	16ff#\LL	.	4D/	-lei-	4A/	lei-	4f#\	.	8ee\L]	.	8D/L	2dd\	2ff#\
.	.	.	.	.	(16f#/	.	16dd\	.	.	.	.	.	.	.	.	.	.	.	.
8D/	.	8D/	.	.	16e/	.	16ee\	.	.	.	.	.	.	.	8f#/J	.	8AA/J	.	.
.	.	.	.	.	16d/JJ)	.	16ff#\JJ	.	.	.	.	.	.	.	.	.	.	.	.
8D/	.	8D/	8	.	16a/LL|	.	16d\LL	.	4D/	-son	4A/	-son	4f#\	-son	8a\	-lei-	8D/L	.	.
.	.	.	.	.	(16f#/	.	16dd\	.	.	.	.	.	.	.	.	.	.	.	.
8D/J	.	8D/J	.	.	16e/	.	16ee\	.	.	.	.	.	.	.	8dd\	-son	8D/J	.	.
.	.	.	.	.	16d/JJ)	.	16ff#\JJ	.	.	.	.	.	.	.	.	.	.	.	.
!LO:LB:g=original	!	!	!	!	!	!	!	!	!	!	!LO:LB:g=original	!	!	!	!	!	!	!	!
=87	=87	=87	=87	=87	=87	=87	=87	=87	=87	=87	=87	=87	=87	=87	=87	=87	=87	=87	=87
4A\	.	4A\	.	.	4cc#\	.	4ee\	.	(4A\	Ky-	(4c#\	Ky-	4.a\	Ky-	(4ee\	Ky-	4AA/	4a/	4ee\
!	!	!	!	!	!	!	!	!	!	!	!	!	!	!	!LO:N:vis=16.	!	!	!	!
4D/	.	4D/	.	.	4dd\	.	4ff#\	.	8.D/)	.	8.d\)	.	.	.	8.ff#\)	.	4r	4r	4r
.	.	.	.	.	.	.	.	.	.	.	.	.	8a\	-ri-	.	.	.	.	.
.	.	.	.	.	.	.	.	.	16D/	-ri-	16d\	-ri-	.	.	16ff#\	-ri-	.	.	.
=88	=88	=88	=88	=88	=88	=88	=88	=88	=88	=88	=88	=88	=88	=88	=88	=88	=88	=88	=88
4AA/	.	4AA/	.	.	8cc#\	.	8ee\	.	4A\	-e	4c#\	-e	4a\	-e	4ee\	-e	4AA/	4a/	4ee\
.	.	.	.	.	4ff#\	.	4aa\	.	.	.	.	.	.	.	.	.	.	.	.
4r	.	4r	.	.	.	.	.	.	4r	.	4r	.	4r	.	4r	.	4D/	4dd\	4ff#\
.	.	.	.	.	16ee\LL	.	16gg\LL	.	.	.	.	.	.	.	.	.	.	.	.
.	.	.	.	.	16dd\JJ	.	16ff#\JJ	.	.	.	.	.	.	.	.	.	.	.	.
!	!	!	!	!	!	!	!	!	!	!	!	!	!LO:LB:g=original	!	!LO:LB:g=original	!	!	!	!
=89	=89	=89	=89	=89	=89	=89	=89	=89	=89	=89	=89	=89	=89	=89	=89	=89	=89	=89	=89
8r	.	8r	.	.	8.cc#t\L	.	8.eeT\L	.	8r	.	8r	.	8r	.	8r	.	4AA/	8a/	8ee\
8A\L	.	8A\L	.	.	.	.	.	.	8A\	e-	8c#\	e-	8a\	e-	8ee\	e-	.	4ff#\	4aa\
.	.	.	.	.	32b\LL	.	32dd\LL	.	.	.	.	.	.	.	.	.	.	.	.
.	.	.	.	.	32cc#\JJJ	.	32ee\JJJ	.	.	.	.	.	.	.	.	.	.	.	.
8F#\	.	8F#\	6	.	8.ddT\L	.	8.ff#t\L	.	8F#\L	-lei-	4d\	-lei-	4a\	-lei-	4ff#\	-lei-	4r	.	.
8D\J	.	8D\J	.	.	.	.	.	.	8D\J	.	.	.	.	.	.	.	.	16ee\LL	16gg\LL
.	.	.	.	.	32cc#\LL	.	32ee\LL	.	.	.	.	.	.	.	.	.	.	16dd\JJ	16ff#\JJ
.	.	.	.	.	32dd\JJJ	.	32ff#\JJJ	.	.	.	.	.	.	.	.	.	.	.	.
=90	=90	=90	=90	=90	=90	=90	=90	=90	=90	=90	=90	=90	=90	=90	=90	=90	=90	=90	=90
4AA/	.	4AA/	.	.	8cc#\	.	8ee\	.	4A\	-son	4c#\	-son	4a\	-son	4ee\	-son	4AA/	4a/	4ee\
.	.	.	.	.	4ff#\	.	4aa\	.	.	.	.	.	.	.	.	.	.	.	.
4r	.	4r	.	.	.	.	.	.	4r	.	4r	.	4r	.	4r	.	4D/	4dd\	4ff#\
.	.	.	.	.	16ee\LL	.	16gg\LL	.	.	.	.	.	.	.	.	.	.	.	.
.	.	.	.	.	16dd\JJ	.	16ff#\JJ	.	.	.	.	.	.	.	.	.	.	.	.
!	!	!	!	!	!LO:LB:g=original	!	!	!	!	!	!	!	!	!	!	!	!	!	!
=91	=91	=91	=91	=91	=91	=91	=91	=91	=91	=91	=91	=91	=91	=91	=91	=91	=91	=91	=91
!LO:TX:b:i:t=Tasto solo	!	!LO:TX:b:t=T&colon;S&colon;	!	!	!	!	!	!	!	!	!	!	!	!	!	!	!	!	!
8AA/L	.	8AA/L	.	.	8.cc#t\L	.	8.eeT\L	.	[>2AA/	e-	[2A/	e-	4e\	e-	4cc#\	e-	4AA/	4a/	4ee\
8AA/	.	8AA/	.	.	.	.	.	.	.	.	.	.	.	.	.	.	.	.	.
.	.	.	.	.	32b\LL	.	32dd\LL	.	.	.	.	.	.	.	.	.	.	.	.
.	.	.	.	.	32cc#\JJJ	.	32ee\JJJ	.	.	.	.	.	.	.	.	.	.	.	.
8AA/	.	8AA/	.	.	8.ddT\L	.	8.ff#t\L	.	.	.	.	.	4f#\	.	4dd\	.	4r	4r	4r
8AA/J	.	8AA/J	.	.	.	.	.	.	.	.	.	.	.	.	.	.	.	.	.
.	.	.	.	.	32cc#\LL	.	32ee\LL	.	.	.	.	.	.	.	.	.	.	.	.
.	.	.	.	.	32dd\JJJ	.	32ff#\JJJ	.	.	.	.	.	.	.	.	.	.	.	.
=92	=92	=92	=92	=92	=92	=92	=92	=92	=92	=92	=92	=92	=92	=92	=92	=92	=92	=92	=92
!	!	!	!	!	!	!	!	!	!	!	!	!	!	!	!	!	!LO:TX:a:t=3.	!	!
8AA/L	.	8AA/L	.	.	8.eeT\L	.	8.ggT\L	.	2AA/]	.	2A/_	.	4g\	.	4ee\	.	1r	1r	1r
8AA/	.	8AA/	.	.	.	.	.	.	.	.	.	.	.	.	.	.	.	.	.
.	.	.	.	.	32dd\LL	.	32ff#\LL	.	.	.	.	.	.	.	.	.	.	.	.
.	.	.	.	.	32ee\JJJ	.	32gg\JJJ	.	.	.	.	.	.	.	.	.	.	.	.
8AA/	.	8AA/	.	.	8.ff#t\L	.	8.aaT\L	.	.	.	.	.	4a\	.	4ff#\	.	.	.	.
8AA/J	.	8AA/J	.	.	.	.	.	.	.	.	.	.	.	.	.	.	.	.	.
.	.	.	.	.	32ee\LL	.	32gg\LL	.	.	.	.	.	.	.	.	.	.	.	.
.	.	.	.	.	32ff#\JJJ	.	32aa\JJJ	.	.	.	.	.	.	.	.	.	.	.	.
=93	=93	=93	=93	=93	=93	=93	=93	=93	=93	=93	=93	=93	=93	=93	=93	=93	=93	=93	=93
8AA/L	.	8AA/L	.	.	8.ggT\L	.	8.bbT\L	.	4AA/	-lei-	4A/]	.	4b\	.	4gg\	.	.	.	.
8AA/	.	8AA/	.	.	.	.	.	.	.	.	.	.	.	.	.	.	.	.	.
.	.	.	.	.	32ff#\LL	.	32aa\LL	.	.	.	.	.	.	.	.	.	.	.	.
.	.	.	.	.	32gg\JJJ	.	32bb\JJJ	.	.	.	.	.	.	.	.	.	.	.	.
8AA/	.	8AA/	.	.	8.eeT\L	.	8.ccc#t\L	.	4AA/	-son	4A/	-lei-	4cc#\	-lei-	4ee\	-lei-	.	.	.
8AA/J	.	8AA/J	.	.	.	.	.	.	.	.	.	.	.	.	.	.	.	.	.
.	.	.	.	.	32dd\LL	.	32bb\LL	.	.	.	.	.	.	.	.	.	.	.	.
.	.	.	.	.	32ee\JJJ	.	32ccc#\JJJ	.	.	.	.	.	.	.	.	.	.	.	.
!	!	!	!	!	!	!	!LO:LB:g=original	!	!LO:LB:g=original	!	!	!	!	!	!	!	!	!	!
=94	=94	=94	=94	=94	=94	=94	=94	=94	=94	=94	=94	=94	=94	=94	=94	=94	=94	=94	=94
8r	.	8r	.	.	8ff#\L	.	8ddd\L	.	8r	.	8d\	-son	8dd\	-son	8ff#\	-son	2r	8r	8r
8B\L	.	8B\L	6\	.	8dd\	.	8gg#X\|	.	8B\	Chri-	8e\	Chri-	8g#X\	Chri-	8dd\	Chri-	.	8ee\L	8gg#X\L
8B\	.	8B\	.	.	8dd\	.	8gg#\|	.	8B\	-ſte	8e\	-ſte	8g#\	-ſte	8dd\	-ſte	.	8ee\	8gg#\
8B\J	.	8B\J	.	.	8dd\J	.	8gg#\J|	.	8B\	e-	8e\	e-	8g#\	e-	8dd\	e-	.	8ee\J	8gg#\J
!	!	!	!	!	!	!	!	!	!	!	!	!	!	!	!	!	!	!	!LO:LB:g=original
=95	=95	=95	=95	=95	=95	=95	=95	=95	=95	=95	=95	=95	=95	=95	=95	=95	=95	=95	=95
8A\L	.	8A\L	.	.	8cc#\L	.	8aa\L|	.	8A\L	-lei-	4e\	-lei-	4a\	-lei-	4cc#\	-lei-	4AA/	4ee\	4.aa\
8G\	.	8G\	.	.	8a\J	.	(8cc#\	.	8G\J	.	.	.	.	.	.	.	.	.	.
8F#\	.	8F#\	6	.	[4dd\	.	8dd\)	.	8F#\	-son	8d\	-son	8a\	-son	8dd\	-son	8D/L	8ff#\L	.
8G\J	.	8G\J	.	.	.	.	8gg\J|	.	8G\	e-	8B\	e-	8gn\	e-	8dd\	e-	8D/J	8ee\J	8ggn\
=96	=96	=96	=96	=96	=96	=96	=96	=96	=96	=96	=96	=96	=96	=96	=96	=96	=96	=96	=96
!LO:TX:t=P:problem=mixed beam	!	!LO:TX:t=P:problem=mixed beam	!	!	!	!	!	!	!	!	!	!	!	!	!	!	!	!	!
8A\L	.	8A\L	6 4	.	4dd\]	.	4ff#\	.	2A\	-lei-	2A/	-lei-	(4f#\	-lei-	4dd\	-lei-	4AA/	4dd\	4ff#\
8A\	.	8A\	.	.	.	.	.	.	.	.	.	.	.	.	.	.	.	.	.
8AA/	.	8AA/	5 3	.	4cc#t\	.	4eeT\	.	.	.	.	.	4eT\)	.	4cc#t\	.	4AA/	4a/	4eeT\
8AA/J	.	8AA/J	.	.	.	.	.	.	.	.	.	.	.	.	.	.	.	.	.
=97	=97	=97	=97	=97	=97	=97	=97	=97	=97	=97	=97	=97	=97	=97	=97	=97	=97	=97	=97
!	!	!	!	!	!	!	!	!	!	!	!	!	!	!	!	!	!	!	!LO:TX:t=P:problem=mixed beam
16r	.	16r	.	.	4dd\	.	4dd\	.	4D/	-son	4A/	-son	4f#\	-son	4dd\	-son	8D/L	8f#/L	8dd\L
16D\LL	.	16D\LL	.	.	.	.	.	.	.	.	.	.	.	.	.	.	.	.	.
16F#\	.	16F#\	.	.	.	.	.	.	.	.	.	.	.	.	.	.	8D/J	16d/L	16f#/L
16A\JJ	.	16A\JJ	.	.	.	.	.	.	.	.	.	.	.	.	.	.	.	16d/JJ	16f#/JJ
8d\L	.	8d\L|	.	.	4r	.	4r	.	4r	.	4r	.	4r	.	4r	.	4D/	4d/	4f#/
8cn\J	.	8cn\J|	.	.	.	.	.	.	.	.	.	.	.	.	.	.	.	.	.
!	!	!	!	!	!	!	!	!	!	!	!LO:LB:g=original	!	!	!	!	!	!	!	!
=98	=98	=98	=98	=98	=98	=98	=98	=98	=98	=98	=98	=98	=98	=98	=98	=98	=98	=98	=98
!	!	!	!	!	!	!	!LO:TX:a:t=1.	!	!	!	!	!	!	!	!	!	!LO:TX:a:t=9.	!	!LO:TX:a:t=9.
8B\L	.	8B\L	6	.	16dd\LL|	.	2r	.	4.B\	Ky-	4r	.	2r	.	4.dd\	Ky-	0r	0r	0r
.	.	.	.	.	(16b\	.	.	.	.	.	.	.	.	.	.	.	.	.	.
8B\	.	8B\	.	.	16a\	.	.	.	.	.	.	.	.	.	.	.	.	.	.
.	.	.	.	.	16g\JJ)	.	.	.	.	.	.	.	.	.	.	.	.	.	.
8B\	.	8B\	.	.	16dd\LL|	.	.	.	.	.	[4d\	e-	.	.	.	.	.	.	.
.	.	.	.	.	(16b\	.	.	.	.	.	.	.	.	.	.	.	.	.	.
8B\J	.	8B\J	.	.	16a\	.	.	.	8B\	-ri-	.	.	.	.	8dd\	-ri-	.	.	.
.	.	.	.	.	16g\JJ)	.	.	.	.	.	.	.	.	.	.	.	.	.	.
=99	=99	=99	=99	=99	=99	=99	=99	=99	=99	=99	=99	=99	=99	=99	=99	=99	=99	=99	=99
!	!	!	!	!	!	!	!	!	!	!	!LO:TX:t=P:problem=mixed beam	!	!	!	!	!	!	!	!
8cn\L	.	8cn\L	9	.	16ee\LL	.	16gg\LL|	.	2cn\	-e	8d\L]	.	4.g\	Ky-	2ee\	-e	.	.	.
.	.	.	.	.	16ccn\	.	(16ee\	.	.	.	.	.	.	.	.	.	.	.	.
8c\	.	8c\	.	.	16dd\	.	16dd\	.	.	.	8E/J	.	.	.	.	.	.	.	.
.	.	.	.	.	16ee\JJ	.	16ccn\JJ)	.	.	.	.	.	.	.	.	.	.	.	.
!	!	!	!	!	!LO:TX:t=P:problem=mixed beam	!	!	!	!	!	!LO:TX:t=P:problem=mixed beam	!	!	!	!	!	!	!	!
8c\	.	8c\	8	.	16cn/LL	.	16gg\LL|	.	.	.	8G/L	.	.	.	.	.	.	.	.
.	.	.	.	.	16cc\	.	(16ee\	.	.	.	.	.	.	.	.	.	.	.	.
8c\J	.	8c\J	.	.	16dd\	.	16dd\	.	.	.	8cn\J	.	8g\	-ri-	.	.	.	.	.
.	.	.	.	.	16ee\JJ	.	16ccn\JJ)	.	.	.	.	.	.	.	.	.	.	.	.
!LO:LB:g=original	!	!LO:LB:g=original	!	!	!	!	!	!	!	!	!	!	!	!	!	!	!	!	!
=100	=100	=100	=100	=100	=100	=100	=100	=100	=100	=100	=100	=100	=100	=100	=100	=100	=100	=100	=100
!	!	!	!	!	!	!	!	!	!	!	!	!	!	!	!LO:TX:t=P:problem=mixed beam	!	!	!	!
8A\L	.	8A\L	6 5 n	.	16ee\LL|	.	16ff#\LL	.	2A\	e-	[2cn\	.	2f#\	e	8ee\L	e-	.	.	.
.	.	.	.	.	(16ccn\	.	16aa\	.	.	.	.	.	.	.	.	.	.	.	.
8A\	.	8A\	.	.	16b\	.	16gg\	.	.	.	.	.	.	.	8f#/J	.	.	.	.
.	.	.	.	.	16a\JJ)	.	16ff#\JJ	.	.	.	.	.	.	.	.	.	.	.	.
!	!	!	!	!	!LO:LB:g=original	!	!LO:TX:t=P:problem=mixed beam	!	!	!	!	!	!	!	!	!	!	!	!
8A\	.	8A\	.	.	16ee\LL|	.	16f#/LL|	.	.	.	.	.	.	.	8a\L	.	.	.	.
.	.	.	.	.	(16cc\	.	(16aa\	.	.	.	.	.	.	.	.	.	.	.	.
8A\J	.	8A\J	.	.	16b\	.	16gg\	.	.	.	.	.	.	.	8ccn\J	.	.	.	.
.	.	.	.	.	16a\JJ)	.	16ff#\JJ)	.	.	.	.	.	.	.	.	.	.	.	.
!	!	!	!	!	!	!	!	!	!	!	!	!	!LO:LB:g=original	!	!	!	!	!	!
=101	=101	=101	=101	=101	=101	=101	=101	=101	=101	=101	=101	=101	=101	=101	=101	=101	=101	=101	=101
!	!	!	!	!	!	!	!	!	!	!	!LO:TX:t=P:problem=mixed beam	!	!	!	!LO:TX:t=P:problem=brak początku ligatury	!	!	!	!
8B\L	.	8B\L	n9r	.	16dd\LL	.	16ff#\LL|	.	2B\	.	8c\L]	.	2f#\	e-	[2dd\	.	.	.	.
.	.	.	.	.	16b\	.	(16dd\	.	.	.	.	.	.	.	.	.	.	.	.
8B\	.	8B\	.	.	16ccn\	.	16ccn\	.	.	.	8D/J	.	.	.	.	.	.	.	.
.	.	.	.	.	16dd\JJ	.	16b\JJ)	.	.	.	.	.	.	.	.	.	.	.	.
!	!	!	!	!	!LO:TX:t=P:problem=mixed beam	!	!	!	!	!	!	!	!	!	!	!	!	!	!
8B\	.	8B\	8	.	16B/LL	.	16ff#\LL|	.	.	.	8F#/L	.	.	.	.	.	.	.	.
.	.	.	.	.	16b\	.	(16dd\	.	.	.	.	.	.	.	.	.	.	.	.
8B\J	.	8B\J	.	.	16ccn\	.	16ccn\	.	.	.	8B/J	.	.	.	.	.	.	.	.
.	.	.	.	.	16dd\JJ	.	16b\JJ)	.	.	.	.	.	.	.	.	.	.	.	.
!	!	!	!	!	!	!	!	!	!	!	!	!	!	!	!LO:LB:g=original	!	!	!	!
=102	=102	=102	=102	=102	=102	=102	=102	=102	=102	=102	=102	=102	=102	=102	=102	=102	=102	=102	=102
!	!	!	!	!	!	!	!	!	!	!	!	!	!	!	!LO:TX:t=P:problem=mixed beam	!	!	!	!
8G\L	.	8G\L	6 5	.	16dd\LL|	.	16ee\LL	.	2G\	.	[2B\	.	[2e\	.	8dd\L]	.	0r	0r	0r
.	.	.	.	.	(16b\	.	16gg\	.	.	.	.	.	.	.	.	.	.	.	.
8G\	.	8G\	.	.	16a\	.	16ff#\	.	.	.	.	.	.	.	8e/J	.	.	.	.
.	.	.	.	.	16g\JJ)	.	16ee\JJ	.	.	.	.	.	.	.	.	.	.	.	.
!	!	!	!	!	!	!	!LO:TX:t=P:problem=mixed beam	!	!	!	!	!	!	!	!	!	!	!	!
8G\	.	8G\	.	.	16dd\LL|	.	16e/LL|	.	.	.	.	.	.	.	8g\L	.	.	.	.
.	.	.	.	.	(16b\	.	16gg\	.	.	.	.	.	.	.	.	.	.	.	.
8G\J	.	8G\J	.	.	16a\	.	16ff#\	.	.	.	.	.	.	.	8b\J	.	.	.	.
.	.	.	.	.	16g\JJ)	.	16ee\JJ	.	.	.	.	.	.	.	.	.	.	.	.
=103	=103	=103	=103	=103	=103	=103	=103	=103	=103	=103	=103	=103	=103	=103	=103	=103	=103	=103	=103
!	!	!	!	!	!	!	!	!	!	!	!LO:TX:t=P:problem=mixed beam	!	!	!	!	!	!	!	!
8A\L	.	8A\L	9 n	.	16ccn\LL	.	16ee\LL|	.	2A\	.	8B\L]	.	2e\]	.	[2ccn\	.	.	.	.
.	.	.	.	.	16a\	.	(16ccn\	.	.	.	.	.	.	.	.	.	.	.	.
8A\	.	8A\	.	.	16b\	.	16b\	.	.	.	8Cn/J	.	.	.	.	.	.	.	.
.	.	.	.	.	16ccn\JJ	.	16a\JJ)	.	.	.	.	.	.	.	.	.	.	.	.
8A\	.	8A\	8	.	16A/LL	.	16ee\LL|	.	.	.	8E/L	.	.	.	.	.	.	.	.
.	.	.	.	.	16a/	.	(16ccn\	.	.	.	.	.	.	.	.	.	.	.	.
8A\J	.	8A\J	.	.	16b/	.	16b\	.	.	.	8A/J	.	.	.	.	.	.	.	.
.	.	.	.	.	16ccn/JJ	.	16a\JJ)	.	.	.	.	.	.	.	.	.	.	.	.
!	!	!	!	!	!	!	!LO:LB:g=original	!	!	!	!	!	!	!	!	!	!	!	!
=104	=104	=104	=104	=104	=104	=104	=104	=104	=104	=104	=104	=104	=104	=104	=104	=104	=104	=104	=104
!	!	!	!	!	!	!	!	!	!	!	!	!	!	!	!LO:TX:t=P:problem=mixed beam	!	!	!	!
8F#\L	.	8F#\L	6 -5	.	16ccn\LL|	.	16dd\LL	.	2F#\	.	[2A/	.	2d\	.	8cc\L]	.	.	.	.
.	.	.	.	.	(16a\	.	16ff#\	.	.	.	.	.	.	.	.	.	.	.	.
8F#\	.	8F#\	.	.	16g\	.	16ee\	.	.	.	.	.	.	.	8d/J	.	.	.	.
.	.	.	.	.	16f#\JJ)	.	16dd\JJ	.	.	.	.	.	.	.	.	.	.	.	.
!	!	!	!	!	!	!	!LO:TX:t=P:problem=mixed beam	!	!	!	!	!	!	!	!	!	!	!	!
8F#\	.	8F#\	.	.	16ccn\LL|	.	16d/LL	.	.	.	.	.	.	.	8f#/L	.	.	.	.
.	.	.	.	.	(16a\	.	16ff#\	.	.	.	.	.	.	.	.	.	.	.	.
8F#\J	.	8F#\J	.	.	16g\	.	16ee\	.	.	.	.	.	.	.	8a/J	.	.	.	.
.	.	.	.	.	16f#\JJ)	.	16dd\JJ	.	.	.	.	.	.	.	.	.	.	.	.
=105	=105	=105	=105	=105	=105	=105	=105	=105	=105	=105	=105	=105	=105	=105	=105	=105	=105	=105	=105
8G\L	.	8G\L	9	.	16b/LL	.	16dd\LL|	.	4G\	-lei-	8A/L]	.	4d\	-lei-	4b\	-lei-	.	.	.
.	.	.	.	.	16g/	.	(16b\	.	.	.	.	.	.	.	.	.	.	.	.
8G\	.	8G\	.	.	16a/	.	16a\	.	.	.	8BB/J	.	.	.	.	.	.	.	.
.	.	.	.	.	16b/JJ	.	16g\JJ)	.	.	.	.	.	.	.	.	.	.	.	.
8G\	.	8G\	8	.	16G/LL	.	16dd\LL|	.	4G\	-son	8D/	-lei-	4d\	-son	4b\	-son	.	.	.
.	.	.	.	.	16g/	.	(16b\	.	.	.	.	.	.	.	.	.	.	.	.
8G\J	.	8G\J	.	.	16a/	.	16a\	.	.	.	8G/	-son	.	.	.	.	.	.	.
.	.	.	.	.	16b/JJ	.	16g\JJ)	.	.	.	.	.	.	.	.	.	.	.	.
=106	=106	=106	=106	=106	=106	=106	=106	=106	=106	=106	=106	=106	=106	=106	=106	=106	=106	=106	=106
4A\	.	4A\	#	.	4cc#X\	.	4ee\	.	4A\	Chri-	(4c#X\	Chri-	2a\	Chri-	(4ee\	Chri-	2r	2r	2r
4D/	.	4D/	.	.	4dd\	.	4ff#\	.	4D/	.	4d\)	.	.	.	4ff#\)	.	.	.	.
=107	=107	=107	=107	=107	=107	=107	=107	=107	=107	=107	=107	=107	=107	=107	=107	=107	=107	=107	=107
4AA/	.	4AA/	.	.	8cc#\	.	8ee\	.	4AA/	-ſte	4c#\	-ſte	4a\	-ſte	4ee\	-ſte	4AA/	4a/	4ee\
.	.	.	.	.	4ff#\	.	4aa\	.	.	.	.	.	.	.	.	.	.	.	.
4r	.	4r	.	.	.	.	.	.	4r	.	4r	.	4r	.	4r	.	4D/	4dd\	4ff#\
.	.	.	.	.	16ee\LL	.	16gg\LL	.	.	.	.	.	.	.	.	.	.	.	.
.	.	.	.	.	16dd\JJ	.	16ff#\JJ	.	.	.	.	.	.	.	.	.	.	.	.
!	!	!	!	!	!LO:LB:g=original	!	!	!	!LO:LB:g=original	!	!	!	!	!	!	!	!	!	!
=108	=108	=108	=108	=108	=108	=108	=108	=108	=108	=108	=108	=108	=108	=108	=108	=108	=108	=108	=108
8r	.	8r	.	.	8.cc#t\L	.	8.eeT\L	.	8r	.	8r	.	8r	.	8r	.	4AA/	8a/	8ee\
8A\L	.	8A\L	.	.	.	.	.	.	8A\	e-	8c#\	e-	8a\	e-	8ee,\	e,-	.	4ff#\	4aa\
.	.	.	.	.	32b\LL	.	32dd\LL	.	.	.	.	.	.	.	.	.	.	.	.
.	.	.	.	.	32cc#\JJJ	.	32ee\JJJ	.	.	.	.	.	.	.	.	.	.	.	.
8F#\	.	8F#\	6	.	8.ddT\L	.	8.ff#t\L	.	8F#\L	-lei-	4d\	-lei-	4a\	-lei-	4ff#\	-lei-	4r	.	.
8D\J	.	8D\J	.	.	.	.	.	.	8D\J	.	.	.	.	.	.	.	.	16ee\LL	16gg\LL
.	.	.	.	.	32cc#\LL	.	32ee\LL	.	.	.	.	.	.	.	.	.	.	16dd\JJ	16ff#\JJ
.	.	.	.	.	32dd\JJJ	.	32ff#\JJJ	.	.	.	.	.	.	.	.	.	.	.	.
!	!	!	!	!	!	!	!	!	!	!	!LO:LB:g=original	!	!	!	!	!	!	!	!
=109	=109	=109	=109	=109	=109	=109	=109	=109	=109	=109	=109	=109	=109	=109	=109	=109	=109	=109	=109
4AA/	.	4AA/	.	.	8cc#\	.	8ee\	.	4AA/	-son	4c#\	-son	4a\	-son	4ee\	-son	4AA/	4a/	4ee\
.	.	.	.	.	4ff#\	.	4aa\	.	.	.	.	.	.	.	.	.	.	.	.
4r	.	4r	.	.	.	.	.	.	4r	.	4r	.	4r	.	4r	.	4D/	4dd\	4ff#\
.	.	.	.	.	16ee\LL	.	16gg\LL	.	.	.	.	.	.	.	.	.	.	.	.
.	.	.	.	.	16dd\JJ	.	16ff#\JJ	.	.	.	.	.	.	.	.	.	.	.	.
!	!	!	!	!	!	!	!	!	!	!	!	!	!	!	!	!	!	!LO:LB:g=original	!
=110	=110	=110	=110	=110	=110	=110	=110	=110	=110	=110	=110	=110	=110	=110	=110	=110	=110	=110	=110
!	!	!	!	!	!	!	!	!	!	!	!	!	!	!	!LO:TX:a:t=1.	!	!	!	!
8r	.	8r	.	.	8.cc#t\L	.	8.eeT\L	.	2r	.	2r	.	2r	.	2r	.	4AA/	8a/	8ee\
8A\L	.	8A\L	.	.	.	.	.	.	.	.	.	.	.	.	.	.	.	4ff#\	4aa\
.	.	.	.	.	32b\LL	.	32dd\LL	.	.	.	.	.	.	.	.	.	.	.	.
.	.	.	.	.	32cc#\JJJ	.	32ee\JJJ	.	.	.	.	.	.	.	.	.	.	.	.
8F#\	.	8F#\	6	.	8.ddT\L	.	8.ff#t\L	.	.	.	.	.	.	.	.	.	4r	.	.
8D\J	.	8D\J	.	.	.	.	.	.	.	.	.	.	.	.	.	.	.	16ee\LL	16gg\LL
.	.	.	.	.	32cc#\LL	.	32ee\LL	.	.	.	.	.	.	.	.	.	.	16dd\JJ	16ff#\JJ
.	.	.	.	.	32dd\JJJ	.	32ff#\JJJ	.	.	.	.	.	.	.	.	.	.	.	.
=111	=111	=111	=111	=111	=111	=111	=111	=111	=111	=111	=111	=111	=111	=111	=111	=111	=111	=111	=111
8C#\L	.	8C#\L	6 5	.	8ee\L	.	8gg\L	.	4r	.	4r	.	4r	.	4r	.	4AA/	8ee\L	8gg\L
8G\	.	8G\	2	.	8cc#\J	.	8ee\	.	.	.	.	.	.	.	.	.	.	8a\	8ee\
8F#\	.	8F#\	6	.	[4dd\	.	8ff#\	.	8r	.	8r	.	8r	.	8r	.	4D/	8dd\	8ff#\
8B\J	.	8B\J	6	.	.	.	8gg\J	.	8B\	e-	8d\	e-	8g\	e-	8gg\	e-	.	8ee\J	8gg\J
!	!	!	!	!	!	!	!	!	!	!	!	!	!	!	!	!	!LO:LB:g=original	!	!
=112	=112	=112	=112	=112	=112	=112	=112	=112	=112	=112	=112	=112	=112	=112	=112	=112	=112	=112	=112
!LO:TX:t=P:problem=mixed beam	!	!LO:TX:t=P:problem=mixed beam	!	!	!	!	!	!	!	!	!	!	!	!	!	!	!	!	!
8A\L	.	8A\L	6 4	.	4dd\]	.	4ff#\	.	4A\	-lei-	4d\	-lei-	4.a\	-lei-	(4ff#\	-lei-	4D/	4dd\	4ff#\
8A\	.	8A\	.	.	.	.	.	.	.	.	.	.	.	.	.	.	.	.	.
8AA/	.	8AA/	5 3	.	4cc#t\	.	4eeT\	.	4AA/	.	4c#t\	.	.	.	4eeT\)	.	4AA/	4a/	4eeT\
8AA/J	.	8AA/J	7	.	.	.	.	.	.	.	.	.	8g\	.	.	.	.	.	.
=113	=113	=113	=113	=113	=113	=113	=113	=113	=113	=113	=113	=113	=113	=113	=113	=113	=113	=113	=113
*	*	*	*	*	*^	*	*	*	*	*	*	*	*	*	*	*	*	*	*
!LO:TX:a:i:t=Tasto Solo	!	!LO:TX:a:t=Tasto Solo.	!	!	!	!	!	!	!	!	!	!	!	!	!	!	!	!	!	!
[2DD/	.	[2DD/	.	.	[2a/	[2f#\	.	[2ff# [2a/	.	4D\	-son	4d\	-son	4f#\	-son	4dd\	-son	4D/	[2d/	4dd\
.	.	.	.	.	.	.	.	.	.	8E\L	e-	8e\L	e-	8e\L	e-	8ee\L	e-	4D/	.	8ee\L
.	.	.	.	.	.	.	.	.	.	8C#\J	.	8c#\J	.	8c#\J	.	8cc#\J	.	.	.	8a\J
=114	=114	=114	=114	=114	=114	=114	=114	=114	=114	=114	=114	=114	=114	=114	=114	=114	=114	=114	=114	=114
2DD/_	.	2DD/_	.	.	2a/_	2f#\_	.	2ff#_ 2a/_	.	4D\	.	4d\	.	4d\	.	4dd\	.	4D/	2d/_	4dd\
!	!	!	!	!	!	!	!	!	!	!	!	!	!	!	!	!	!	!	!	!LO:TX:t=P:problem=mixed beam
.	.	.	.	.	.	.	.	.	.	8F#\L	.	8f#\L	.	8f#\L	.	8ff#\L	.	4D/	.	8ff#\L
.	.	.	.	.	.	.	.	.	.	8C#\J	.	8c#\J	.	8c#\J	.	8cc#\J	.	.	.	8a/J
!	!	!	!	!	!	!	!	!	!	!	!	!	!	!	!	!LO:LB:g=original	!	!	!	!
=115	=115	=115	=115	=115	=115	=115	=115	=115	=115	=115	=115	=115	=115	=115	=115	=115	=115	=115	=115	=115
2DD/_	.	2DD/_	.	.	2a/_	2f#\_	.	2ff#_ 2a/_	.	4D\	.	4d\	.	4d\	.	4dd\	.	4D/	2d/_	4dd\
!	!	!	!	!	!	!	!	!	!	!	!	!	!	!	!	!	!	!	!	!LO:TX:t=P:problem=mixed beam
.	.	.	.	.	.	.	.	.	.	8A\L	.	8a\L	.	8a\L	.	8aa\L	.	4AA/	.	8aa\L
!	!	!	!	!	!	!	!	!	!	!	!	!	!	!	!	!	!	!LO:TX:t=P:problem=wykreślone 4 takty	!	!
.	.	.	.	.	.	.	.	.	.	8C#\J	.	8c#\J	.	8c#\J	.	8cc#\J	.	.	.	8a/J
!LO:LB:g=original	!	!LO:LB:g=original	!	!	!	!	!	!	!	!	!	!	!	!LO:LB:g=original	!	!	!	!	!	!
=116	=116	=116	=116	=116	=116	=116	=116	=116	=116	=116	=116	=116	=116	=116	=116	=116	=116	=116	=116	=116
2DD/_	.	2DD/_	.	.	2a/_	2f#\_	.	2ff#_ 2a/_	.	4D/	lei-	4d\	-lei-	4d\	-lei-	4dd\	-lei-	4D/	2d/_	4dd\
.	.	.	.	.	.	.	.	.	.	4AA/	-son	4A\	-son	4A/	-son	4a\	-son	4D/	.	4a/
!	!	!	!	!	!	!	!	!LO:LB:g=original	!	!	!	!	!	!	!	!	!	!	!	!
=117	=117	=117	=117	=117	=117	=117	=117	=117	=117	=117	=117	=117	=117	=117	=117	=117	=117	=117	=117	=117
2DD/_	.	2DD/_	.	.	2a/_	2f#\_	.	2ff#_ 2a/_	.	4D\	e-	4d\	e-	4d\	e-	4dd\	e-	4D/	2d/_	4dd\
.	.	.	.	.	.	.	.	.	.	8E\L	.	8e\L	.	8e\L	.	8ee\L	.	4D/	.	8ee\L
.	.	.	.	.	.	.	.	.	.	8C#\J	.	8c#\J	.	8c#\J	.	8cc#\J	.	.	.	8a\J
!	!	!	!	!	!	!	!	!	!	!	!	!	!	!	!	!	!	!	!	!LO:LB:g=original
=118	=118	=118	=118	=118	=118	=118	=118	=118	=118	=118	=118	=118	=118	=118	=118	=118	=118	=118	=118	=118
2DD/_	.	2DD/_	.	.	2a/_	2f#\_	.	2ff#_ 2a/_	.	4D\	.	4d\	.	4d\	.	4dd\	.	4D/	2d/_	4dd\
!	!	!	!	!	!	!	!	!	!	!	!	!	!	!	!	!	!	!	!	!LO:TX:t=P:problem=mixed beam
.	.	.	.	.	.	.	.	.	.	8F#\L	.	8f#\L	.	8f#\L	.	8ff#\L	.	4D/	.	8ff#\L
.	.	.	.	.	.	.	.	.	.	8C#\J	.	8c#\J	.	8c#\J	.	8cc#\J	.	.	.	8a/J
=119	=119	=119	=119	=119	=119	=119	=119	=119	=119	=119	=119	=119	=119	=119	=119	=119	=119	=119	=119	=119
2DD/_	.	2DD/_	.	.	2a/_	2f#\_	.	2ff#_ 2a/_	.	4D\	.	4d\	.	4d\	.	4dd\	.	4D/	2d/_	4dd\
!	!	!	!	!	!	!	!	!	!	!	!	!	!	!	!	!	!	!	!	!LO:TX:t=P:problem=mixed beam
.	.	.	.	.	.	.	.	.	.	8A\L	-lei-	8a\L	-lei-	8a\L	-lei-	8aa\L	-lei-	4AA/	.	8aa\L
.	.	.	.	.	.	.	.	.	.	8C#\J	.	8c#\J	.	8c#\J	.	8cc#\J	.	.	.	8a/J
=120	=120	=120	=120	=120	=120	=120	=120	=120	=120	=120	=120	=120	=120	=120	=120	=120	=120	=120	=120	=120
2DD/]	.	2DD/]	.	.	2a/]	2f#\]	.	2ff#] 2a/]	.	2D/	-son.	2d\	-son	2d\	-son.	2dd\	-son.	2D/	2d/]	2dd\
*	*	*	*	*	*v	*v	*	*	*	*	*	*	*	*	*	*	*	*	*	*
==	==	==	==	==	==	==	==	==	==	==	==	==	==	==	==	==	==	==	==
*-	*-	*-	*-	*-	*-	*-	*-	*-	*-	*-	*-	*-	*-	*-	*-	*-	*-	*-	*-
!!!system-decoration: [(g1)]s3[(g2)][(g3)]s10,s11
!!!RDF**kern: > = above
!!!RDF**kern: | = vertical stroke
!!!ENC: Filip Voros
!!!END: 2022-03-30
!!!ENC: Marta Lawrence
!!!END: 2022-04-08
!!!YEC: Copyright 2022 Narodowy Instytut Fryderyka Chopina (https://polishscores.org)
!!!YEM: License CC-BY-4.0 (https://creativecommons.org/licenses/by/4.0)
